; generated by PrusaSlicer 2.1.0+win64 on 2019-12-23 at 16:45:44 UTC

; 

; external perimeters extrusion width = 0.45mm
; perimeters extrusion width = 0.45mm
; infill extrusion width = 0.45mm
; solid infill extrusion width = 0.45mm
; top infill extrusion width = 0.40mm
; first layer extrusion width = 0.42mm

M107
M190 S56 ; set bed temperature and wait for it to be reached
M104 S210 ; set temperature
G28 ; home all axes
G1 Z5 F5000 ; lift nozzle
M109 S210 ; set temperature and wait for it to be reached
G21 ; set units to millimeters
G90 ; use absolute coordinates
M82 ; use absolute distances for extrusion
G92 E0
M900 K30 ; Filament gcode
G1 Z0.200 F7800.000
G1 E-5.00000 F2400.00000
G92 E0
G1 X26.185 Y68.547 F7800.000
G1 E5.00000 F2400.00000
G1 F1800
G1 X27.821 Y67.926 E5.05487
G1 X29.442 Y67.499 E5.10743
G1 X31.110 Y67.239 E5.16037
G1 X32.784 Y67.154 E5.21293
G1 X35.084 Y67.318 E5.28523
G1 X36.201 Y67.517 E5.32080
G1 X37.613 Y67.887 E5.36655
G1 X39.767 Y68.726 E5.43904
G1 X41.734 Y69.832 E5.50980
G1 X43.567 Y71.231 E5.58210
G1 X44.387 Y72.006 E5.61747
G1 X45.372 Y73.099 E5.66361
G1 X46.712 Y74.983 E5.73610
G1 X47.759 Y77.010 E5.80763
G1 X48.333 Y78.553 E5.85923
G1 X48.766 Y80.229 E5.91352
G1 X56.800 Y123.672 E7.29873
G1 X56.955 Y125.310 E7.35032
G1 X56.954 Y126.671 E7.39299
G1 X56.799 Y128.293 E7.44410
G1 X56.456 Y129.977 E7.49798
G1 X55.949 Y131.568 E7.55032
G1 X55.407 Y132.834 E7.59349
G1 X54.622 Y134.269 E7.64479
G1 X53.691 Y135.618 E7.69617
G1 X52.807 Y136.670 E7.73926
G1 X51.609 Y137.845 E7.79187
G1 X50.319 Y138.866 E7.84346
G1 X49.195 Y139.596 E7.88548
G1 X47.693 Y140.378 E7.93859
G1 X46.161 Y140.978 E7.99018
G1 X44.873 Y141.348 E8.03220
G1 X43.290 Y141.647 E8.08271
G1 X40.872 Y141.789 E8.15864
G1 X38.474 Y141.561 E8.23415
G1 X37.292 Y141.311 E8.27203
G1 X35.822 Y140.863 E8.32024
G1 X33.608 Y139.872 E8.39627
G1 X31.635 Y138.601 E8.46987
G1 X29.798 Y136.977 E8.54676
G1 X28.790 Y135.829 E8.59465
G1 X28.086 Y134.874 E8.63186
G1 X26.881 Y132.774 E8.70778
G1 X26.220 Y131.161 E8.76244
G1 X25.730 Y129.440 E8.81853
G1 X16.623 Y85.705 E10.21923
G1 X16.478 Y84.022 E10.27217
G1 X16.508 Y82.334 E10.32512
G1 X16.710 Y80.670 E10.37768
G1 X17.103 Y78.962 E10.43262
G1 X17.778 Y77.063 E10.49580
G1 X18.520 Y75.547 E10.54875
G1 X19.446 Y74.069 E10.60342
G1 X20.485 Y72.746 E10.65618
G1 X21.659 Y71.532 E10.70912
G1 X22.992 Y70.417 E10.76360
G1 X24.395 Y69.474 E10.81662
G1 X26.131 Y68.575 E10.87793
; printing object Filament-Filter_L-B_v1.stl id:0 copy 0
G1 E5.87793 F2400.00000
G92 E0
G1 X33.459 Y86.352 F7800.000
G1 E5.00000 F2400.00000
G1 F1800
G1 X32.983 Y86.423 E5.01509
G1 X32.700 Y86.429 E5.02396
G1 X32.258 Y86.385 E5.03791
G1 X31.773 Y86.256 E5.05362
G1 X31.331 Y86.054 E5.06888
G1 X30.929 Y85.784 E5.08404
G1 X30.591 Y85.467 E5.09859
G1 X30.411 Y85.250 E5.10741
G1 X30.161 Y84.860 E5.12196
G1 X29.969 Y84.417 E5.13709
G1 X29.861 Y83.986 E5.15102
G1 X29.814 Y83.446 E5.16803
G1 X29.849 Y83.002 E5.18197
G1 X29.963 Y82.535 E5.19706
G1 X30.065 Y82.271 E5.20594
G1 X30.273 Y81.878 E5.21988
G1 X30.574 Y81.479 E5.23556
G1 X30.899 Y81.172 E5.24957
G1 X31.139 Y80.993 E5.25894
G1 X31.547 Y80.765 E5.27360
G1 X31.983 Y80.607 E5.28814
G1 X32.256 Y80.545 E5.29693
G1 X32.699 Y80.499 E5.31088
G1 X33.199 Y80.527 E5.32659
G1 X33.654 Y80.630 E5.34122
G1 X33.918 Y80.726 E5.35001
G1 X34.315 Y80.926 E5.36396
G1 X34.705 Y81.208 E5.37905
G1 X34.911 Y81.402 E5.38792
G1 X35.196 Y81.744 E5.40187
G1 X35.442 Y82.157 E5.41696
G1 X35.554 Y82.417 E5.42583
G1 X35.680 Y82.844 E5.43978
G1 X35.744 Y83.341 E5.45549
G1 X35.725 Y83.827 E5.47074
G1 X35.631 Y84.281 E5.48529
G1 X35.541 Y84.547 E5.49408
G1 X35.349 Y84.948 E5.50803
G1 X35.074 Y85.343 E5.52312
G1 X34.885 Y85.553 E5.53199
G1 X34.549 Y85.845 E5.54594
G1 X34.141 Y86.100 E5.56103
G1 X33.883 Y86.217 E5.56990
G1 X33.516 Y86.334 E5.58197
G1 X33.374 Y85.984 F7800.000
G1 F1800
G1 X32.951 Y86.047 E5.59535
G1 X32.715 Y86.052 E5.60276
G1 X32.325 Y86.013 E5.61505
G1 X31.901 Y85.900 E5.62881
G1 X31.515 Y85.724 E5.64210
G1 X31.165 Y85.489 E5.65533
G1 X30.866 Y85.208 E5.66819
G1 X30.716 Y85.027 E5.67556
G1 X30.495 Y84.682 E5.68842
G1 X30.327 Y84.295 E5.70163
G1 X30.232 Y83.915 E5.71391
G1 X30.191 Y83.453 E5.72846
G1 X30.222 Y83.062 E5.74075
G1 X30.324 Y82.648 E5.75413
G1 X30.408 Y82.427 E5.76154
G1 X30.592 Y82.081 E5.77383
G1 X30.856 Y81.731 E5.78757
G1 X31.142 Y81.461 E5.79990
G1 X31.344 Y81.311 E5.80780
G1 X31.704 Y81.109 E5.82073
G1 X32.089 Y80.970 E5.83358
G1 X32.318 Y80.918 E5.84094
G1 X32.708 Y80.877 E5.85323
G1 X33.146 Y80.901 E5.86699
G1 X33.548 Y80.993 E5.87990
G1 X33.768 Y81.073 E5.88725
G1 X34.118 Y81.249 E5.89954
G1 X34.464 Y81.499 E5.91292
G1 X34.636 Y81.661 E5.92033
G1 X34.887 Y81.962 E5.93262
G1 X35.105 Y82.329 E5.94600
G1 X35.199 Y82.546 E5.95341
G1 X35.310 Y82.922 E5.96570
G1 X35.366 Y83.357 E5.97946
G1 X35.349 Y83.781 E5.99275
G1 X35.266 Y84.182 E6.00561
G1 X35.191 Y84.404 E6.01296
G1 X35.021 Y84.758 E6.02525
G1 X34.778 Y85.108 E6.03863
G1 X34.620 Y85.284 E6.04604
G1 X34.324 Y85.541 E6.05833
G1 X33.962 Y85.767 E6.07171
G1 X33.747 Y85.865 E6.07912
G1 X33.431 Y85.965 E6.08953
G1 X33.611 Y85.512 F7800.000
G1 F1800
G1 X33.288 Y85.615 E6.10016
G1 X32.919 Y85.670 E6.11184
G1 X32.730 Y85.674 E6.11778
G1 X32.393 Y85.640 E6.12841
G1 X32.029 Y85.544 E6.14022
G1 X31.700 Y85.394 E6.15154
G1 X31.401 Y85.193 E6.16284
G1 X31.142 Y84.949 E6.17401
G1 X31.021 Y84.804 E6.17993
G1 X30.828 Y84.504 E6.19109
G1 X30.686 Y84.173 E6.20239
G1 X30.603 Y83.845 E6.21302
G1 X30.569 Y83.460 E6.22511
G1 X30.596 Y83.122 E6.23575
G1 X30.684 Y82.760 E6.24743
G1 X30.752 Y82.584 E6.25336
G1 X30.911 Y82.284 E6.26400
G1 X31.138 Y81.984 E6.27580
G1 X31.385 Y81.750 E6.28645
G1 X31.550 Y81.628 E6.29289
G1 X31.861 Y81.453 E6.30408
G1 X32.196 Y81.332 E6.31525
G1 X32.380 Y81.290 E6.32116
G1 X32.717 Y81.255 E6.33180
G1 X33.093 Y81.276 E6.34361
G1 X33.441 Y81.355 E6.35479
G1 X33.619 Y81.420 E6.36071
G1 X33.921 Y81.572 E6.37134
G1 X34.223 Y81.791 E6.38302
G1 X34.361 Y81.920 E6.38896
G1 X34.578 Y82.181 E6.39959
G1 X34.769 Y82.501 E6.41127
G1 X34.844 Y82.675 E6.41721
G1 X34.940 Y83.000 E6.42784
G1 X34.988 Y83.374 E6.43966
G1 X34.974 Y83.734 E6.45097
G1 X34.901 Y84.083 E6.46214
G1 X34.841 Y84.262 E6.46805
G1 X34.694 Y84.568 E6.47869
G1 X34.482 Y84.874 E6.49037
G1 X34.355 Y85.014 E6.49630
G1 X34.100 Y85.237 E6.50694
G1 X33.666 Y85.487 E6.52265
G1 X33.570 Y85.849 F7800.000
G1 E1.52265 F2400.00000
G92 E0
G1 X35.550 Y92.192 F7800.000
G1 E5.00000 F2400.00000
G1 F1800
G1 X34.642 Y92.430 E5.02942
G1 X33.716 Y92.573 E5.05882
G1 X32.779 Y92.621 E5.08822
G1 X31.843 Y92.573 E5.11762
G1 X30.916 Y92.430 E5.14702
G1 X30.009 Y92.192 E5.17642
G1 X29.131 Y91.863 E5.20581
G1 X28.284 Y91.442 E5.23547
G1 X27.764 Y91.126 E5.25456
G1 X27.001 Y90.567 E5.28422
G1 X26.305 Y89.939 E5.31362
G1 X25.676 Y89.243 E5.34302
G1 X25.123 Y88.486 E5.37241
G1 X24.646 Y87.671 E5.40202
G1 X24.367 Y87.081 E5.42249
G1 X24.052 Y86.235 E5.45079
G1 X23.814 Y85.327 E5.48022
G1 X23.671 Y84.401 E5.50961
G1 X23.623 Y83.464 E5.53901
G1 X23.671 Y82.528 E5.56841
G1 X23.814 Y81.601 E5.59781
G1 X24.052 Y80.694 E5.62721
G1 X24.381 Y79.816 E5.65661
G1 X24.798 Y78.977 E5.68601
G1 X25.303 Y78.177 E5.71566
G1 X25.671 Y77.692 E5.73475
G1 X26.305 Y76.990 E5.76441
G1 X27.001 Y76.361 E5.79381
G1 X27.757 Y75.808 E5.82321
G1 X28.567 Y75.334 E5.85261
G1 X29.420 Y74.946 E5.88201
G1 X30.309 Y74.647 E5.91140
G1 X31.224 Y74.441 E5.94080
G1 X32.161 Y74.328 E5.97041
G1 X32.814 Y74.308 E5.99088
G1 X33.715 Y74.356 E6.01918
G1 X34.642 Y74.499 E6.04860
G1 X35.549 Y74.737 E6.07800
G1 X36.427 Y75.066 E6.10740
G1 X37.275 Y75.487 E6.13706
G1 X37.795 Y75.803 E6.15615
G1 X38.558 Y76.361 E6.18581
G1 X39.254 Y76.990 E6.21520
G1 X39.882 Y77.686 E6.24460
G1 X40.436 Y78.442 E6.27400
G1 X40.913 Y79.258 E6.30361
G1 X41.191 Y79.848 E6.32408
G1 X41.507 Y80.694 E6.35238
G1 X41.745 Y81.601 E6.38180
G1 X41.888 Y82.528 E6.41120
G1 X41.936 Y83.464 E6.44060
G1 X41.888 Y84.401 E6.47000
G1 X41.745 Y85.327 E6.49940
G1 X41.507 Y86.234 E6.52880
G1 X41.178 Y87.112 E6.55820
G1 X40.757 Y87.960 E6.58785
G1 X40.441 Y88.480 E6.60694
G1 X39.882 Y89.243 E6.63660
G1 X39.254 Y89.939 E6.66600
G1 X38.558 Y90.567 E6.69540
G1 X37.801 Y91.121 E6.72480
G1 X36.986 Y91.598 E6.75441
G1 X36.396 Y91.876 E6.77487
G1 X35.606 Y92.171 E6.80129
G1 X35.664 Y92.552 F7800.000
G1 F1800
G1 X34.719 Y92.799 E6.83192
G1 X33.754 Y92.949 E6.86253
G1 X32.779 Y92.999 E6.89314
G1 X31.804 Y92.949 E6.92375
G1 X30.840 Y92.799 E6.95436
G1 X29.895 Y92.552 E6.98497
G1 X28.981 Y92.209 E7.01558
G1 X28.102 Y91.773 E7.04635
G1 X27.554 Y91.440 E7.06645
G1 X26.762 Y90.860 E7.09722
G1 X26.038 Y90.206 E7.12783
G1 X25.384 Y89.481 E7.15844
G1 X24.807 Y88.693 E7.18905
G1 X24.312 Y87.847 E7.21979
G1 X24.020 Y87.227 E7.24128
G1 X23.692 Y86.349 E7.27067
G1 X23.445 Y85.404 E7.30130
G1 X23.295 Y84.439 E7.33191
G1 X23.245 Y83.464 E7.36252
G1 X23.295 Y82.489 E7.39313
G1 X23.445 Y81.525 E7.42374
G1 X23.692 Y80.580 E7.45435
G1 X24.034 Y79.666 E7.48496
G1 X24.469 Y78.792 E7.51558
G1 X24.993 Y77.962 E7.54634
G1 X25.380 Y77.451 E7.56644
G1 X26.038 Y76.723 E7.59721
G1 X26.762 Y76.069 E7.62782
G1 X27.550 Y75.492 E7.65843
G1 X28.393 Y74.999 E7.68904
G1 X29.282 Y74.595 E7.71966
G1 X30.207 Y74.284 E7.75027
G1 X31.159 Y74.069 E7.78088
G1 X32.133 Y73.952 E7.81162
G1 X32.818 Y73.931 E7.83310
G1 X33.754 Y73.980 E7.86250
G1 X34.719 Y74.130 E7.89312
G1 X35.664 Y74.377 E7.92373
G1 X36.578 Y74.719 E7.95435
G1 X37.457 Y75.156 E7.98511
G1 X38.004 Y75.489 E8.00521
G1 X38.796 Y76.069 E8.03598
G1 X39.521 Y76.723 E8.06659
G1 X40.175 Y77.447 E8.09720
G1 X40.752 Y78.235 E8.12781
G1 X41.247 Y79.082 E8.15855
G1 X41.539 Y79.701 E8.18004
G1 X41.867 Y80.580 E8.20943
G1 X42.114 Y81.525 E8.24006
G1 X42.264 Y82.489 E8.27067
G1 X42.314 Y83.464 E8.30128
G1 X42.264 Y84.439 E8.33189
G1 X42.114 Y85.404 E8.36250
G1 X41.867 Y86.349 E8.39311
G1 X41.524 Y87.263 E8.42373
G1 X41.088 Y88.142 E8.45449
G1 X40.755 Y88.689 E8.47459
G1 X40.175 Y89.481 E8.50536
G1 X39.521 Y90.206 E8.53597
G1 X38.796 Y90.860 E8.56658
G1 X38.008 Y91.437 E8.59719
G1 X37.162 Y91.932 E8.62793
G1 X36.542 Y92.224 E8.64942
G1 X35.720 Y92.531 E8.67693
G1 X35.778 Y92.912 F7800.000
G1 F1800
G1 X34.796 Y93.169 E8.70876
G1 X33.793 Y93.324 E8.74059
G1 X32.779 Y93.376 E8.77241
G1 X31.766 Y93.324 E8.80423
G1 X30.763 Y93.169 E8.83605
G1 X29.781 Y92.912 E8.86788
G1 X28.831 Y92.556 E8.89970
G1 X27.920 Y92.103 E8.93158
G1 X27.345 Y91.754 E8.95269
G1 X26.524 Y91.153 E8.98457
G1 X25.771 Y90.473 E9.01639
G1 X25.091 Y89.720 E9.04822
G1 X24.491 Y88.901 E9.08004
G1 X23.978 Y88.023 E9.11191
G1 X23.672 Y87.374 E9.13441
G1 X23.332 Y86.463 E9.16490
G1 X23.075 Y85.481 E9.19673
G1 X22.920 Y84.478 E9.22855
G1 X22.868 Y83.464 E9.26038
G1 X22.920 Y82.451 E9.29220
G1 X23.075 Y81.448 E9.32402
G1 X23.332 Y80.466 E9.35585
G1 X23.688 Y79.516 E9.38767
G1 X24.140 Y78.607 E9.41949
G1 X24.683 Y77.747 E9.45137
G1 X25.089 Y77.210 E9.47248
G1 X25.771 Y76.456 E9.50436
G1 X26.524 Y75.776 E9.53618
G1 X27.343 Y75.176 E9.56801
G1 X28.219 Y74.664 E9.59983
G1 X29.143 Y74.244 E9.63165
G1 X30.105 Y73.920 E9.66348
G1 X31.095 Y73.697 E9.69530
G1 X32.104 Y73.575 E9.72717
G1 X32.822 Y73.553 E9.74967
G1 X33.793 Y73.604 E9.78016
G1 X34.796 Y73.760 E9.81199
G1 X35.778 Y74.017 E9.84381
G1 X36.728 Y74.373 E9.87564
G1 X37.639 Y74.825 E9.90752
G1 X38.214 Y75.175 E9.92862
G1 X39.035 Y75.776 E9.96050
G1 X39.788 Y76.456 E9.99233
G1 X40.468 Y77.209 E10.02415
G1 X41.068 Y78.028 E10.05597
G1 X41.581 Y78.906 E10.08784
G1 X41.887 Y79.555 E10.11035
G1 X42.227 Y80.466 E10.14084
G1 X42.484 Y81.448 E10.17266
G1 X42.639 Y82.451 E10.20449
G1 X42.691 Y83.464 E10.23631
G1 X42.639 Y84.478 E10.26813
G1 X42.484 Y85.481 E10.29996
G1 X42.227 Y86.463 E10.33178
G1 X41.871 Y87.413 E10.36360
G1 X41.418 Y88.324 E10.39548
G1 X41.069 Y88.899 E10.41659
G1 X40.468 Y89.720 E10.44847
G1 X39.788 Y90.473 E10.48029
G1 X39.035 Y91.153 E10.51212
G1 X38.216 Y91.753 E10.54394
G1 X37.338 Y92.266 E10.57581
G1 X36.689 Y92.572 E10.59832
G1 X35.834 Y92.891 E10.62692
G1 X35.484 Y92.640 F7800.000
G1 X36.106 Y91.864
G1 F1800
G1 X24.513 Y80.271 E11.14169
G1 X24.367 Y80.659 E11.15471
G1 X35.585 Y91.877 E11.65282
G1 X35.172 Y91.998 E11.66632
G1 X24.245 Y81.071 E12.15151
G1 X24.135 Y81.495 E12.16525
G1 X34.749 Y92.109 E12.63657
G1 X34.302 Y92.196 E12.65087
G1 X24.048 Y81.942 E13.10619
G1 X23.976 Y82.404 E13.12088
G1 X33.840 Y92.268 E13.55885
G1 X33.347 Y92.309 E13.57437
G1 X23.935 Y82.897 E13.99228
G1 X23.909 Y83.405 E14.00825
G1 X32.839 Y92.335 E14.40476
G1 X32.282 Y92.312 E14.42225
G1 X23.931 Y83.961 E14.79305
G1 X23.979 Y84.543 E14.81137
G1 X31.701 Y92.265 E15.15424
G1 X31.069 Y92.167 E15.17432
G1 X24.077 Y85.175 E15.48479
G1 X24.252 Y85.885 E15.50775
G1 X30.359 Y91.991 E15.77890
G1 X30.095 Y91.922 E15.78748
G1 X29.553 Y91.719 E15.80566
G1 X24.523 Y86.689 E16.02899
G1 X24.628 Y86.971 E16.03844
G1 X24.977 Y87.677 E16.06316
G1 X28.943 Y91.643 E16.23927
G1 E11.23927 F2400.00000
G92 E0
G1 X40.846 Y87.526 F7800.000
G1 E5.00000 F2400.00000
G1 F1800
G1 X35.896 Y82.576 E5.21980
G1 X35.958 Y82.785 E5.22664
G1 X36.015 Y83.229 E5.24070
G1 X40.542 Y87.756 E5.44172
G1 X40.345 Y88.093 E5.45397
G1 X36.010 Y83.758 E5.64644
G1 X36.006 Y83.861 E5.64968
G1 X35.933 Y84.215 E5.66102
G1 X40.136 Y88.418 E5.84763
G1 X39.910 Y88.726 E5.85963
G1 X35.812 Y84.628 E6.04161
G1 X35.641 Y84.991 E6.05421
G1 X39.685 Y89.035 E6.23374
G1 X39.434 Y89.318 E6.24562
G1 X35.435 Y85.319 E6.42317
G1 X35.204 Y85.622 E6.43514
G1 X39.181 Y89.599 E6.61171
G1 X38.914 Y89.866 E6.62357
G1 X34.934 Y85.886 E6.80029
G1 X34.637 Y86.123 E6.81221
G1 X38.633 Y90.119 E6.98962
G1 X38.350 Y90.370 E7.00150
G1 X34.308 Y86.328 E7.18094
G1 X33.941 Y86.495 E7.19360
G1 X38.041 Y90.595 E7.37564
G1 X37.733 Y90.821 E7.38764
G1 X33.536 Y86.624 E7.57397
G1 X33.074 Y86.696 E7.58867
G1 X37.404 Y91.026 E7.78094
G1 X37.067 Y91.223 E7.79320
G1 X32.541 Y86.697 E7.99415
G1 X32.207 Y86.664 E8.00470
G1 X31.890 Y86.580 E8.01501
G1 X36.721 Y91.411 E8.22951
G1 X36.358 Y91.582 E8.24210
G1 X24.662 Y79.886 E8.76142
G1 X24.839 Y79.529 E8.77393
G1 X29.661 Y84.351 E8.98803
G1 X29.581 Y84.033 E8.99831
G1 X29.553 Y83.709 E9.00854
G1 X25.016 Y79.172 E9.20996
G1 X25.218 Y78.840 E9.22216
G1 X29.552 Y83.174 E9.41457
G1 X29.569 Y82.957 E9.42139
G1 X29.628 Y82.716 E9.42919
G1 X25.425 Y78.513 E9.61580
G1 X25.643 Y78.197 E9.62785
G1 X29.749 Y82.303 E9.81018
G1 X29.920 Y81.940 E9.82278
G1 X25.873 Y77.893 E10.00246
G1 X26.125 Y77.611 E10.01434
G1 X30.122 Y81.608 E10.19182
G1 X30.352 Y81.304 E10.20379
G1 X26.378 Y77.330 E10.38023
G1 X26.645 Y77.063 E10.39208
G1 X30.624 Y81.042 E10.56876
G1 X30.920 Y80.804 E10.58069
G1 X26.926 Y76.810 E10.75802
G1 X27.209 Y76.559 E10.76990
G1 X31.255 Y80.605 E10.94952
G1 X31.429 Y80.507 E10.95579
G1 X31.621 Y80.437 E10.96222
G1 X27.518 Y76.334 E11.14444
G1 X27.826 Y76.108 E11.15644
G1 X32.026 Y80.308 E11.34292
G1 X32.210 Y80.266 E11.34885
G1 X32.488 Y80.237 E11.35765
G1 X28.155 Y75.903 E11.55007
G1 X28.492 Y75.706 E11.56233
G1 X33.019 Y80.233 E11.76336
G1 X33.239 Y80.246 E11.77025
G1 X33.662 Y80.342 E11.78390
G1 X28.840 Y75.520 E11.99800
G1 X29.207 Y75.354 E12.01066
G1 X40.897 Y87.043 E12.52970
G1 X41.046 Y86.658 E12.54265
G1 X29.579 Y75.191 E13.05182
G1 X29.979 Y75.057 E13.06506
G1 X41.192 Y86.270 E13.56295
G1 X41.313 Y85.857 E13.57645
G1 X30.378 Y74.922 E14.06200
G1 X30.813 Y74.823 E14.07600
G1 X41.424 Y85.434 E14.54715
G1 X41.511 Y84.987 E14.56146
G1 X31.249 Y74.725 E15.01712
G1 X31.724 Y74.666 E15.03214
G1 X41.583 Y84.525 E15.46991
G1 X41.624 Y84.032 E15.48544
G1 X32.202 Y74.610 E15.90379
G1 X32.720 Y74.594 E15.92006
G1 X41.650 Y83.524 E16.31658
G1 X41.627 Y82.967 E16.33406
G1 X33.276 Y74.616 E16.70491
G1 X33.858 Y74.664 E16.72325
G1 X41.580 Y82.386 E17.06613
G1 X41.482 Y81.754 E17.08621
G1 X34.490 Y74.762 E17.39669
G1 X35.199 Y74.937 E17.41964
G1 X41.306 Y81.044 E17.69081
G1 X41.237 Y80.779 E17.69942
G1 X41.036 Y80.240 E17.71749
G1 X36.006 Y75.210 E17.94084
G1 X36.315 Y75.325 E17.95119
G1 X36.992 Y75.662 E17.97494
G1 X40.967 Y79.637 E18.15143
G1 X40.267 Y78.403 F7800.000
G1 F1800
G1 X37.840 Y75.976 E18.25919
