; generated by PrusaSlicer 2.1.1+win64 on 2020-01-13 at 19:44:13 UTC

; 

; external perimeters extrusion width = 0.45mm
; perimeters extrusion width = 0.45mm
; infill extrusion width = 0.45mm
; solid infill extrusion width = 0.45mm
; top infill extrusion width = 0.40mm
; first layer extrusion width = 0.48mm

M201 X9000 Y9000 Z500 E10000 ; sets maximum accelerations, mm/sec^2
M203 X500 Y500 Z12 E120 ; sets maximum feedrates, mm/sec
M204 P1500 R1500 T1500 ; sets acceleration (P, T) and retract acceleration (R), mm/sec^2
M205 X10.00 Y10.00 Z0.20 E2.50 ; sets the jerk limits, mm/sec
M205 S0 T0 ; sets the minimum extruding and travel feed rate, mm/sec
M107 ; disable fan
M190 S56 ; set bed temperature and wait for it to be reached
M104 S210 ; set temperature
G28 ; home all axes
G1 Z5 F5000 ; lift nozzle
M109 S210 ; set temperature and wait for it to be reached
G21 ; set units to millimeters
G90 ; use absolute coordinates
M82 ; use absolute distances for extrusion
G92 E0 ; reset extrusion distance
M900 K30 ; Filament gcode
;LAYER:0
G1 Z0.240 F7800.000 ; move to next layer (0)
G1 E-5.00000 F2400.00000 ; retract
G92 E0 ; reset extrusion distance
G1 X70.359 Y70.868 F7800.000 ; move to first skirt point
G1 E5.00000 F2400.00000 ; unretract
G1 F1800
G1 X71.278 Y70.024 E5.05336 ; skirt
G1 X72.347 Y69.380 E5.10673 ; skirt
G1 X73.530 Y68.962 E5.16035 ; skirt
G1 X74.766 Y68.790 E5.21371 ; skirt
G1 X125.006 Y68.786 E7.36175 ; skirt
G1 X126.157 Y68.894 E7.41118 ; skirt
G1 X127.274 Y69.217 E7.46087 ; skirt
G1 X128.306 Y69.738 E7.51031 ; skirt
G1 X129.228 Y70.446 E7.56000 ; skirt
G1 X130.002 Y71.313 E7.60969 ; skirt
G1 X130.598 Y72.303 E7.65912 ; skirt
G1 X131.001 Y73.387 E7.70856 ; skirt
G1 X131.196 Y74.526 E7.75799 ; skirt
G1 X131.212 Y125.179 E9.92365 ; skirt
G1 X131.086 Y126.254 E9.96993 ; skirt
G1 X130.776 Y127.291 E10.01622 ; skirt
G1 X130.288 Y128.264 E10.06276 ; skirt
G1 X129.641 Y129.132 E10.10905 ; skirt
G1 X128.682 Y130.006 E10.16451 ; skirt
G1 X127.569 Y130.659 E10.21970 ; skirt
G1 X126.344 Y131.067 E10.27490 ; skirt
G1 X125.055 Y131.214 E10.33036 ; skirt
G1 X74.821 Y131.212 E12.47813 ; skirt
G1 X73.746 Y131.086 E12.52442 ; skirt
G1 X72.709 Y130.776 E12.57070 ; skirt
G1 X71.736 Y130.288 E12.61725 ; skirt
G1 X70.868 Y129.641 E12.66353 ; skirt
G1 X69.994 Y128.682 E12.71899 ; skirt
G1 X69.341 Y127.569 E12.77419 ; skirt
G1 X68.933 Y126.344 E12.82938 ; skirt
G1 X68.786 Y125.055 E12.88484 ; skirt
G1 X68.788 Y74.821 E15.03261 ; skirt
G1 X68.914 Y73.746 E15.07890 ; skirt
G1 X69.224 Y72.709 E15.12518 ; skirt
G1 X69.712 Y71.736 E15.17173 ; skirt
G1 X70.323 Y70.916 E15.21545 ; skirt
; printing object AIl_In_One_3D_printer_test_micro.stl id:0 copy 0
G1 E10.21545 F2400.00000 ; retract
G92 E0 ; reset extrusion distance
G1 X123.903 Y123.903 F7800.000 ; move to first perimeter point
G1 E5.00000 F2400.00000 ; unretract
G1 F1800
G1 X76.097 Y123.903 E7.04397 ; perimeter
G1 X76.097 Y76.097 E9.08794 ; perimeter
G1 X123.903 Y76.097 E11.13190 ; perimeter
G1 X123.903 Y123.843 E13.17331 ; perimeter
G1 X124.332 Y124.332 F7800.000 ; move to first perimeter point
G1 F1800
G1 X75.668 Y124.332 E15.25392 ; perimeter
G1 X75.668 Y75.668 E17.33453 ; perimeter
G1 X124.332 Y75.668 E19.41514 ; perimeter
G1 X124.332 Y124.272 E21.49318 ; perimeter
G1 X124.760 Y124.760 F7800.000 ; move to first perimeter point
G1 F1800
G1 X75.240 Y124.760 E23.61043 ; perimeter
G1 X75.240 Y75.240 E25.72768 ; perimeter
G1 X124.760 Y75.240 E27.84493 ; perimeter
G1 X124.760 Y124.700 E29.95962 ; perimeter
G1 X124.374 Y124.656 F7800.000 ; move inwards before travel
G1 E24.95962 F2400.00000 ; retract
G92 E0 ; reset extrusion distance
G1 X123.774 Y77.092 F7800.000 ; move to first infill point
G1 E5.00000 F2400.00000 ; unretract
G1 F1800
G1 X123.101 Y76.418 E5.04076 ; infill
G1 X122.494 Y76.418 E5.06669 ; infill
G1 X123.582 Y77.506 E5.13246 ; infill
G1 X123.582 Y78.112 E5.15840 ; infill
G1 X121.888 Y76.418 E5.26084 ; infill
G1 X121.282 Y76.418 E5.28678 ; infill
G1 X123.582 Y78.718 E5.42590 ; infill
G1 X123.582 Y79.324 E5.45183 ; infill
G1 X120.676 Y76.418 E5.62763 ; infill
G1 X120.069 Y76.418 E5.65356 ; infill
G1 X123.582 Y79.931 E5.86603 ; infill
G1 X123.582 Y80.537 E5.89196 ; infill
G1 X119.463 Y76.418 E6.14111 ; infill
G1 X118.857 Y76.418 E6.16704 ; infill
G1 X123.582 Y81.143 E6.45286 ; infill
G1 X123.582 Y81.749 E6.47880 ; infill
G1 X118.251 Y76.418 E6.80129 ; infill
G1 X117.644 Y76.418 E6.82722 ; infill
G1 X123.582 Y82.356 E7.18639 ; infill
G1 X123.582 Y82.962 E7.21233 ; infill
G1 X117.038 Y76.418 E7.60817 ; infill
G1 X116.432 Y76.418 E7.63411 ; infill
G1 X123.582 Y83.568 E8.06663 ; infill
G1 X123.582 Y84.174 E8.09256 ; infill
G1 X115.826 Y76.418 E8.56176 ; infill
G1 X115.219 Y76.418 E8.58769 ; infill
G1 X123.582 Y84.781 E9.09356 ; infill
G1 X123.582 Y85.387 E9.11949 ; infill
G1 X114.613 Y76.418 E9.66204 ; infill
G1 X114.007 Y76.418 E9.68797 ; infill
G1 X123.582 Y85.993 E10.26719 ; infill
G1 X123.582 Y86.600 E10.29313 ; infill
G1 X113.400 Y76.418 E10.90902 ; infill
G1 X112.794 Y76.418 E10.93495 ; infill
G1 X123.582 Y87.206 E11.58753 ; infill
G1 X123.582 Y87.812 E11.61346 ; infill
G1 X112.188 Y76.418 E12.30270 ; infill
G1 X111.582 Y76.418 E12.32864 ; infill
G1 X123.582 Y88.418 E13.05456 ; infill
G1 X123.582 Y89.025 E13.08049 ; infill
G1 X110.975 Y76.418 E13.84309 ; infill
G1 X110.369 Y76.418 E13.86902 ; infill
G1 X123.582 Y89.631 E14.66829 ; infill
G1 X123.582 Y90.237 E14.69422 ; infill
G1 X109.763 Y76.418 E15.53017 ; infill
G1 X109.157 Y76.418 E15.55610 ; infill
G1 X123.582 Y90.843 E16.42872 ; infill
G1 X123.582 Y91.450 E16.45466 ; infill
G1 X108.550 Y76.418 E17.36395 ; infill
G1 X107.944 Y76.418 E17.38988 ; infill
G1 X123.582 Y92.056 E18.33586 ; infill
G1 X123.582 Y92.662 E18.36179 ; infill
G1 X107.338 Y76.418 E19.34443 ; infill
G1 X106.732 Y76.418 E19.37037 ; infill
G1 X123.582 Y93.268 E20.38969 ; infill
G1 X123.582 Y93.875 E20.41562 ; infill
G1 X106.125 Y76.418 E21.47162 ; infill
G1 X105.519 Y76.418 E21.49755 ; infill
G1 X123.582 Y94.481 E22.59022 ; infill
G1 X123.582 Y95.087 E22.61615 ; infill
G1 X104.913 Y76.418 E23.74550 ; infill
G1 X104.306 Y76.418 E23.77143 ; infill
G1 X123.582 Y95.694 E24.93745 ; infill
G1 X123.582 Y96.300 E24.96339 ; infill
G1 X103.700 Y76.418 E26.16608 ; infill
G1 X103.094 Y76.418 E26.19201 ; infill
G1 X123.582 Y96.906 E27.43139 ; infill
G1 X123.582 Y97.512 E27.45732 ; infill
G1 X102.488 Y76.418 E28.73336 ; infill
G1 X101.881 Y76.418 E28.75930 ; infill
G1 X123.582 Y98.119 E30.07202 ; infill
G1 X123.582 Y98.725 E30.09795 ; infill
G1 X101.275 Y76.418 E31.44735 ; infill
G1 X100.669 Y76.418 E31.47328 ; infill
G1 X123.582 Y99.331 E32.85935 ; infill
G1 X123.582 Y99.937 E32.88528 ; infill
G1 X100.063 Y76.418 E34.30803 ; infill
G1 X99.456 Y76.418 E34.33396 ; infill
G1 X123.582 Y100.544 E35.79338 ; infill
G1 X123.582 Y101.150 E35.81932 ; infill
G1 X98.850 Y76.418 E37.31541 ; infill
G1 X98.244 Y76.418 E37.34134 ; infill
G1 X123.582 Y101.756 E38.87411 ; infill
G1 X123.582 Y102.362 E38.90005 ; infill
G1 X97.638 Y76.418 E40.46949 ; infill
G1 X97.031 Y76.418 E40.49543 ; infill
G1 X123.582 Y102.969 E42.10155 ; infill
G1 X123.582 Y103.575 E42.12748 ; infill
G1 X96.425 Y76.418 E43.77028 ; infill
G1 X95.819 Y76.418 E43.79621 ; infill
G1 X123.582 Y104.181 E45.47568 ; infill
G1 X123.582 Y104.787 E45.50161 ; infill
G1 X95.213 Y76.418 E47.21776 ; infill
G1 X94.606 Y76.418 E47.24369 ; infill
G1 X123.582 Y105.394 E48.99651 ; infill
G1 X123.582 Y106.000 E49.02244 ; infill
G1 X94.000 Y76.418 E50.81194 ; infill
G1 X93.394 Y76.418 E50.83787 ; infill
G1 X123.582 Y106.606 E52.66404 ; infill
G1 X123.582 Y107.213 E52.68998 ; infill
G1 X92.787 Y76.418 E54.55282 ; infill
G1 X92.181 Y76.418 E54.57876 ; infill
G1 X123.582 Y107.819 E56.47828 ; infill
G1 X123.582 Y108.425 E56.50421 ; infill
G1 X91.575 Y76.418 E58.44040 ; infill
G1 X90.969 Y76.418 E58.46634 ; infill
G1 X123.582 Y109.031 E60.43921 ; infill
G1 X123.582 Y109.638 E60.46514 ; infill
G1 X90.362 Y76.418 E62.47469 ; infill
G1 X89.756 Y76.418 E62.50062 ; infill
G1 X123.582 Y110.244 E64.54684 ; infill
G1 X123.582 Y110.850 E64.57277 ; infill
G1 X89.150 Y76.418 E66.65567 ; infill
G1 X88.544 Y76.418 E66.68160 ; infill
G1 X123.582 Y111.456 E68.80117 ; infill
G1 X123.582 Y112.063 E68.82711 ; infill
G1 X87.937 Y76.418 E70.98335 ; infill
G1 X87.331 Y76.418 E71.00928 ; infill
G1 X123.582 Y112.669 E73.20220 ; infill
G1 X123.582 Y113.275 E73.22814 ; infill
G1 X86.725 Y76.418 E75.45773 ; infill
G1 X86.119 Y76.418 E75.48367 ; infill
G1 X123.582 Y113.881 E77.74994 ; infill
G1 X123.582 Y114.488 E77.77587 ; infill
G1 X85.512 Y76.418 E80.07881 ; infill
G1 X84.906 Y76.418 E80.10475 ; infill
G1 X123.582 Y115.094 E82.44437 ; infill
G1 X123.582 Y115.700 E82.47030 ; infill
G1 X84.300 Y76.418 E84.84660 ; infill
G1 X83.693 Y76.418 E84.87253 ; infill
G1 X123.582 Y116.307 E87.28550 ; infill
G1 X123.582 Y116.913 E87.31143 ; infill
G1 X83.087 Y76.418 E89.76108 ; infill
G1 X82.481 Y76.418 E89.78701 ; infill
G1 X123.582 Y117.519 E92.27333 ; infill
G1 X123.582 Y118.125 E92.29927 ; infill
G1 X81.875 Y76.418 E94.82226 ; infill
G1 X81.268 Y76.418 E94.84819 ; infill
G1 X123.582 Y118.732 E97.40786 ; infill
G1 X123.582 Y119.338 E97.43380 ; infill
G1 X80.662 Y76.418 E100.03014 ; infill
G1 X80.056 Y76.418 E100.05608 ; infill
G1 X123.582 Y119.944 E102.68910 ; infill
G1 X123.582 Y120.550 E102.71503 ; infill
G1 X79.450 Y76.418 E105.38472 ; infill
G1 X78.843 Y76.418 E105.41066 ; infill
G1 X123.582 Y121.157 E108.11703 ; infill
G1 X123.582 Y121.763 E108.14296 ; infill
G1 X78.237 Y76.418 E110.88601 ; infill
G1 X77.631 Y76.418 E110.91194 ; infill
G1 X123.582 Y122.369 E113.69166 ; infill
G1 X123.582 Y122.975 E113.71759 ; infill
G1 X77.025 Y76.418 E116.53399 ; infill
G1 X76.418 Y76.418 E116.55992 ; infill
G1 X123.582 Y123.582 E119.41299 ; infill
G1 X122.975 Y123.582 E119.43892 ; infill
G1 X76.418 Y77.025 E122.25531 ; infill
G1 X76.418 Y77.631 E122.28124 ; infill
G1 X122.369 Y123.582 E125.06096 ; infill
G1 X121.763 Y123.582 E125.08689 ; infill
G1 X76.418 Y78.237 E127.82993 ; infill
G1 X76.418 Y78.843 E127.85586 ; infill
G1 X121.157 Y123.582 E130.56223 ; infill
G1 X120.550 Y123.582 E130.58816 ; infill
G1 X76.418 Y79.450 E133.25785 ; infill
G1 X76.418 Y80.056 E133.28378 ; infill
G1 X119.944 Y123.582 E135.91680 ; infill
G1 X119.338 Y123.582 E135.94273 ; infill
G1 X76.418 Y80.662 E138.53907 ; infill
G1 X76.418 Y81.269 E138.56500 ; infill
G1 X118.731 Y123.582 E141.12467 ; infill
G1 X118.125 Y123.582 E141.15060 ; infill
G1 X76.418 Y81.875 E143.67359 ; infill
G1 X76.418 Y82.481 E143.69952 ; infill
G1 X117.519 Y123.582 E146.18584 ; infill
G1 X116.913 Y123.582 E146.21177 ; infill
G1 X76.418 Y83.087 E148.66141 ; infill
G1 X76.418 Y83.694 E148.68734 ; infill
G1 X116.306 Y123.582 E151.10031 ; infill
G1 X115.700 Y123.582 E151.12624 ; infill
G1 X76.418 Y84.300 E153.50253 ; infill
G1 X76.418 Y84.906 E153.52847 ; infill
G1 X115.094 Y123.582 E155.86808 ; infill
G1 X114.488 Y123.582 E155.89401 ; infill
G1 X76.418 Y85.512 E158.19695 ; infill
G1 X76.418 Y86.119 E158.22289 ; infill
G1 X113.881 Y123.582 E160.48915 ; infill
G1 X113.275 Y123.582 E160.51508 ; infill
G1 X76.418 Y86.725 E162.74467 ; infill
G1 X76.418 Y87.331 E162.77061 ; infill
G1 X112.669 Y123.582 E164.96352 ; infill
G1 X112.063 Y123.582 E164.98945 ; infill
G1 X76.418 Y87.937 E167.14569 ; infill
G1 X76.418 Y88.544 E167.17163 ; infill
G1 X111.456 Y123.582 E169.29119 ; infill
G1 X110.850 Y123.582 E169.31713 ; infill
G1 X76.418 Y89.150 E171.40002 ; infill
G1 X76.418 Y89.756 E171.42595 ; infill
G1 X110.244 Y123.582 E173.47216 ; infill
G1 X109.638 Y123.582 E173.49810 ; infill
G1 X76.418 Y90.362 E175.50764 ; infill
G1 X76.418 Y90.969 E175.53357 ; infill
G1 X109.031 Y123.582 E177.50643 ; infill
G1 X108.425 Y123.582 E177.53237 ; infill
G1 X76.418 Y91.575 E179.46856 ; infill
G1 X76.418 Y92.181 E179.49449 ; infill
G1 X107.819 Y123.582 E181.39401 ; infill
G1 X107.212 Y123.582 E181.41994 ; infill
G1 X76.418 Y92.788 E183.28278 ; infill
G1 X76.418 Y93.394 E183.30871 ; infill
G1 X106.606 Y123.582 E185.13488 ; infill
G1 X106.000 Y123.582 E185.16081 ; infill
G1 X76.418 Y94.000 E186.95030 ; infill
G1 X76.418 Y94.606 E186.97623 ; infill
G1 X105.394 Y123.582 E188.72905 ; infill
G1 X104.787 Y123.582 E188.75498 ; infill
G1 X76.418 Y95.213 E190.47112 ; infill
G1 X76.418 Y95.819 E190.49705 ; infill
G1 X104.181 Y123.582 E192.17652 ; infill
G1 X103.575 Y123.582 E192.20245 ; infill
G1 X76.418 Y96.425 E193.84524 ; infill
G1 X76.418 Y97.031 E193.87117 ; infill
G1 X102.969 Y123.582 E195.47729 ; infill
G1 X102.362 Y123.582 E195.50322 ; infill
G1 X76.418 Y97.638 E197.07266 ; infill
G1 X76.418 Y98.244 E197.09860 ; infill
G1 X101.756 Y123.582 E198.63136 ; infill
G1 X101.150 Y123.582 E198.65729 ; infill
G1 X76.418 Y98.850 E200.15338 ; infill
G1 X76.418 Y99.456 E200.17932 ; infill
G1 X100.544 Y123.582 E201.63873 ; infill
G1 X99.937 Y123.582 E201.66466 ; infill
G1 X76.418 Y100.063 E203.08740 ; infill
G1 X76.418 Y100.669 E203.11334 ; infill
G1 X99.331 Y123.582 E204.49940 ; infill
G1 X98.725 Y123.582 E204.52533 ; infill
G1 X76.418 Y101.275 E205.87472 ; infill
G1 X76.418 Y101.882 E205.90066 ; infill
G1 X98.118 Y123.582 E207.21337 ; infill
G1 X97.512 Y123.582 E207.23931 ; infill
G1 X76.418 Y102.488 E208.51535 ; infill
G1 X76.418 Y103.094 E208.54128 ; infill
G1 X96.906 Y123.582 E209.78064 ; infill
G1 X96.300 Y123.582 E209.80658 ; infill
G1 X76.418 Y103.700 E211.00927 ; infill
G1 X76.418 Y104.307 E211.03520 ; infill
G1 X95.693 Y123.582 E212.20121 ; infill
G1 X95.087 Y123.582 E212.22715 ; infill
G1 X76.418 Y104.913 E213.35649 ; infill
G1 X76.418 Y105.519 E213.38242 ; infill
G1 X94.481 Y123.582 E214.47509 ; infill
G1 X93.875 Y123.582 E214.50102 ; infill
G1 X76.418 Y106.125 E215.55701 ; infill
G1 X76.418 Y106.732 E215.58294 ; infill
G1 X93.268 Y123.582 E216.60226 ; infill
G1 X92.662 Y123.582 E216.62819 ; infill
G1 X76.418 Y107.338 E217.61083 ; infill
G1 X76.418 Y107.944 E217.63676 ; infill
G1 X92.056 Y123.582 E218.58273 ; infill
G1 X91.450 Y123.582 E218.60866 ; infill
G1 X76.418 Y108.550 E219.51795 ; infill
G1 X76.418 Y109.157 E219.54388 ; infill
G1 X90.843 Y123.582 E220.41650 ; infill
G1 X90.237 Y123.582 E220.44243 ; infill
G1 X76.418 Y109.763 E221.27837 ; infill
G1 X76.418 Y110.369 E221.30431 ; infill
G1 X89.631 Y123.582 E222.10357 ; infill
G1 X89.025 Y123.582 E222.12950 ; infill
G1 X76.418 Y110.975 E222.89209 ; infill
G1 X76.418 Y111.582 E222.91803 ; infill
G1 X88.418 Y123.582 E223.64394 ; infill
G1 X87.812 Y123.582 E223.66987 ; infill
G1 X76.418 Y112.188 E224.35911 ; infill
G1 X76.418 Y112.794 E224.38505 ; infill
G1 X87.206 Y123.582 E225.03761 ; infill
G1 X86.599 Y123.582 E225.06355 ; infill
G1 X76.418 Y113.401 E225.67944 ; infill
G1 X76.418 Y114.007 E225.70537 ; infill
G1 X85.993 Y123.582 E226.28458 ; infill
G1 X85.387 Y123.582 E226.31052 ; infill
G1 X76.418 Y114.613 E226.85306 ; infill
G1 X76.418 Y115.219 E226.87899 ; infill
G1 X84.781 Y123.582 E227.38486 ; infill
G1 X84.174 Y123.582 E227.41079 ; infill
G1 X76.418 Y115.826 E227.87998 ; infill
G1 X76.418 Y116.432 E227.90591 ; infill
G1 X83.568 Y123.582 E228.33843 ; infill
G1 X82.962 Y123.582 E228.36436 ; infill
G1 X76.418 Y117.038 E228.76020 ; infill
G1 X76.418 Y117.644 E228.78613 ; infill
G1 X82.356 Y123.582 E229.14530 ; infill
G1 X81.749 Y123.582 E229.17123 ; infill
G1 X76.418 Y118.251 E229.49372 ; infill
G1 X76.418 Y118.857 E229.51965 ; infill
G1 X81.143 Y123.582 E229.80547 ; infill
G1 X80.537 Y123.582 E229.83140 ; infill
G1 X76.418 Y119.463 E230.08054 ; infill
G1 X76.418 Y120.069 E230.10648 ; infill
G1 X79.931 Y123.582 E230.31894 ; infill
G1 X79.324 Y123.582 E230.34487 ; infill
G1 X76.418 Y120.676 E230.52066 ; infill
G1 X76.418 Y121.282 E230.54660 ; infill
G1 X78.718 Y123.582 E230.68571 ; infill
G1 X78.112 Y123.582 E230.71165 ; infill
G1 X76.418 Y121.888 E230.81409 ; infill
G1 X76.418 Y122.495 E230.84002 ; infill
G1 X77.505 Y123.582 E230.90578 ; infill
G1 X76.899 Y123.582 E230.93172 ; infill
G1 X76.226 Y122.908 E230.97247 ; infill
; stop printing object AIl_In_One_3D_printer_test_micro.stl id:0 copy 0
