; generated by PrusaSlicer 2.1.0+win64 on 2019-12-22 at 19:29:27 UTC

; 

; external perimeters extrusion width = 0.45mm
; perimeters extrusion width = 0.45mm
; infill extrusion width = 0.45mm
; solid infill extrusion width = 0.45mm
; top infill extrusion width = 0.40mm
; first layer extrusion width = 0.42mm

M107 ; disable fan
M190 S56 ; set bed temperature and wait for it to be reached
M104 S210 ; set temperature
G28 ; home all axes
G1 Z5 F5000 ; lift nozzle
M109 S210 ; set temperature and wait for it to be reached
G21 ; set units to millimeters
G90 ; use absolute coordinates
M82 ; use absolute distances for extrusion
G92 E0 ; reset extrusion distance
M900 K30 ; Filament gcode
G1 Z0.200 F7800.000 ; move to next layer (0)
G1 E-5.00000 F2400.00000 ; retract
G92 E0 ; reset extrusion distance
G1 X70.953 Y70.318 F7800.000 ; move to first skirt point
G1 E5.00000 F2400.00000 ; unretract
G1 F1800
G1 X71.994 Y69.590 E5.03982 ; skirt
G1 X73.156 Y69.093 E5.07945 ; skirt
G1 X74.400 Y68.841 E5.11926 ; skirt
G1 X95.006 Y68.811 E5.76534 ; skirt
G1 X96.088 Y68.908 E5.79940 ; skirt
G1 X97.137 Y69.192 E5.83347 ; skirt
G1 X98.120 Y69.655 E5.86753 ; skirt
G1 X99.011 Y70.287 E5.90179 ; skirt
G1 X99.773 Y71.061 E5.93585 ; skirt
G1 X100.388 Y71.957 E5.96992 ; skirt
G1 X100.838 Y72.946 E6.00398 ; skirt
G1 X101.107 Y73.998 E6.03804 ; skirt
G1 X101.188 Y74.977 E6.06884 ; skirt
G1 X101.182 Y95.295 E6.70589 ; skirt
G1 X101.067 Y96.221 E6.73515 ; skirt
G1 X100.812 Y97.125 E6.76461 ; skirt
G1 X100.426 Y97.975 E6.79387 ; skirt
G1 X99.917 Y98.757 E6.82313 ; skirt
G1 X98.981 Y99.738 E6.86563 ; skirt
G1 X97.854 Y100.491 E6.90813 ; skirt
G1 X96.590 Y100.981 E6.95063 ; skirt
G1 X95.250 Y101.183 E6.99314 ; skirt
G1 X74.674 Y101.180 E7.63827 ; skirt
G1 X73.755 Y101.062 E7.66734 ; skirt
G1 X72.863 Y100.808 E7.69641 ; skirt
G1 X72.019 Y100.423 E7.72548 ; skirt
G1 X71.243 Y99.917 E7.75455 ; skirt
G1 X70.262 Y98.981 E7.79705 ; skirt
G1 X69.509 Y97.854 E7.83956 ; skirt
G1 X69.019 Y96.590 E7.88206 ; skirt
G1 X68.817 Y95.250 E7.92456 ; skirt
G1 X68.820 Y74.674 E8.56969 ; skirt
G1 X68.938 Y73.755 E8.59876 ; skirt
G1 X69.192 Y72.863 E8.62783 ; skirt
G1 X69.577 Y72.019 E8.65690 ; skirt
G1 X70.083 Y71.243 E8.68597 ; skirt
G1 X70.912 Y70.362 E8.72391 ; skirt
G1 E3.72391 F2400.00000 ; retract
G92 E0 ; reset extrusion distance
G1 X94.036 Y94.036 F7800.000 ; move to first perimeter point
G1 E5.00000 F2400.00000 ; unretract
G1 F1800
G1 X75.964 Y94.036 E5.56663 ; perimeter
G1 X75.964 Y75.964 E6.13325 ; perimeter
G1 X94.036 Y75.964 E6.69988 ; perimeter
G1 X94.036 Y93.976 E7.26462 ; perimeter
G1 X94.413 Y94.413 F7800.000 ; move to first perimeter point
G1 F1800
G1 X75.587 Y94.413 E7.85489 ; perimeter
G1 X75.587 Y75.587 E8.44516 ; perimeter
G1 X94.413 Y75.587 E9.03543 ; perimeter
G1 X94.413 Y94.353 E9.62382 ; perimeter
G1 X94.790 Y94.790 F7800.000 ; move to first perimeter point
G1 F1800
G1 X75.210 Y94.790 E10.23774 ; perimeter
G1 X75.210 Y75.210 E10.85166 ; perimeter
G1 X94.790 Y75.210 E11.46557 ; perimeter
G1 X94.790 Y94.730 E12.07761 ; perimeter
G1 X94.404 Y94.686 F7800.000 ; move inwards before travel
G1 E7.07761 F2400.00000 ; retract
G92 E0 ; reset extrusion distance
G1 X93.923 Y76.840 F7800.000 ; move to first infill point
G1 E5.00000 F2400.00000 ; unretract
G1 F1800
G1 X93.329 Y76.247 E5.02634 ; infill
G1 X92.795 Y76.247 E5.04310 ; infill
G1 X93.753 Y77.205 E5.08560 ; infill
G1 X93.753 Y77.738 E5.10235 ; infill
G1 X92.262 Y76.247 E5.16855 ; infill
G1 X91.728 Y76.247 E5.18531 ; infill
G1 X93.753 Y78.272 E5.27520 ; infill
G1 X93.753 Y78.806 E5.29196 ; infill
G1 X91.194 Y76.247 E5.40555 ; infill
G1 X90.660 Y76.247 E5.42230 ; infill
G1 X93.753 Y79.340 E5.55959 ; infill
G1 X93.753 Y79.874 E5.57634 ; infill
G1 X90.126 Y76.247 E5.73733 ; infill
G1 X89.593 Y76.247 E5.75408 ; infill
G1 X93.753 Y80.407 E5.93876 ; infill
G1 X93.753 Y80.941 E5.95551 ; infill
G1 X89.059 Y76.247 E6.16388 ; infill
G1 X88.525 Y76.247 E6.18064 ; infill
G1 X93.753 Y81.475 E6.41271 ; infill
G1 X93.753 Y82.009 E6.42946 ; infill
G1 X87.991 Y76.247 E6.68522 ; infill
G1 X87.457 Y76.247 E6.70198 ; infill
G1 X93.753 Y82.543 E6.98144 ; infill
G1 X93.753 Y83.077 E6.99819 ; infill
G1 X86.923 Y76.247 E7.30134 ; infill
G1 X86.390 Y76.247 E7.31810 ; infill
G1 X93.753 Y83.610 E7.64495 ; infill
G1 X93.753 Y84.144 E7.66170 ; infill
G1 X85.856 Y76.247 E8.01225 ; infill
G1 X85.322 Y76.247 E8.02900 ; infill
G1 X93.753 Y84.678 E8.40324 ; infill
G1 X93.753 Y85.212 E8.42000 ; infill
G1 X84.788 Y76.247 E8.81793 ; infill
G1 X84.254 Y76.247 E8.83469 ; infill
G1 X93.753 Y85.746 E9.25632 ; infill
G1 X93.753 Y86.280 E9.27307 ; infill
G1 X83.720 Y76.247 E9.71840 ; infill
G1 X83.187 Y76.247 E9.73515 ; infill
G1 X93.753 Y86.813 E10.20417 ; infill
G1 X93.753 Y87.347 E10.22093 ; infill
G1 X82.653 Y76.247 E10.71364 ; infill
G1 X82.119 Y76.247 E10.73040 ; infill
G1 X93.753 Y87.881 E11.24681 ; infill
G1 X93.753 Y88.415 E11.26356 ; infill
G1 X81.585 Y76.247 E11.80367 ; infill
G1 X81.051 Y76.247 E11.82043 ; infill
G1 X93.753 Y88.949 E12.38423 ; infill
G1 X93.753 Y89.483 E12.40098 ; infill
G1 X80.517 Y76.247 E12.98848 ; infill
G1 X79.984 Y76.247 E13.00524 ; infill
G1 X93.753 Y90.016 E13.61643 ; infill
G1 X93.753 Y90.550 E13.63318 ; infill
G1 X79.450 Y76.247 E14.26807 ; infill
G1 X78.916 Y76.247 E14.28483 ; infill
G1 X93.753 Y91.084 E14.94341 ; infill
G1 X93.753 Y91.618 E14.96017 ; infill
G1 X78.382 Y76.247 E15.64245 ; infill
G1 X77.848 Y76.247 E15.65920 ; infill
G1 X93.753 Y92.152 E16.36517 ; infill
G1 X93.753 Y92.685 E16.38193 ; infill
G1 X77.315 Y76.247 E17.11160 ; infill
G1 X76.781 Y76.247 E17.12835 ; infill
G1 X93.753 Y93.219 E17.88172 ; infill
G1 X93.753 Y93.753 E17.89847 ; infill
G1 X76.247 Y76.247 E18.67553 ; infill
G1 X76.247 Y76.781 E18.69228 ; infill
G1 X93.219 Y93.753 E19.44564 ; infill
G1 X92.685 Y93.753 E19.46240 ; infill
G1 X76.247 Y77.315 E20.19206 ; infill
G1 X76.247 Y77.848 E20.20882 ; infill
G1 X92.152 Y93.753 E20.91479 ; infill
G1 X91.618 Y93.753 E20.93154 ; infill
G1 X76.247 Y78.382 E21.61382 ; infill
G1 X76.247 Y78.916 E21.63057 ; infill
G1 X91.084 Y93.753 E22.28915 ; infill
G1 X90.550 Y93.753 E22.30591 ; infill
G1 X76.247 Y79.450 E22.94079 ; infill
G1 X76.247 Y79.984 E22.95755 ; infill
G1 X90.016 Y93.753 E23.56873 ; infill
G1 X89.482 Y93.753 E23.58549 ; infill
G1 X76.247 Y80.518 E24.17298 ; infill
G1 X76.247 Y81.051 E24.18974 ; infill
G1 X88.949 Y93.753 E24.75353 ; infill
G1 X88.415 Y93.753 E24.77029 ; infill
G1 X76.247 Y81.585 E25.31039 ; infill
G1 X76.247 Y82.119 E25.32715 ; infill
G1 X87.881 Y93.753 E25.84355 ; infill
G1 X87.347 Y93.753 E25.86031 ; infill
G1 X76.247 Y82.653 E26.35302 ; infill
G1 X76.247 Y83.187 E26.36977 ; infill
G1 X86.813 Y93.753 E26.83879 ; infill
G1 X86.279 Y93.753 E26.85555 ; infill
G1 X76.247 Y83.721 E27.30087 ; infill
G1 X76.247 Y84.254 E27.31762 ; infill
G1 X85.746 Y93.753 E27.73925 ; infill
G1 X85.212 Y93.753 E27.75600 ; infill
G1 X76.247 Y84.788 E28.15393 ; infill
G1 X76.247 Y85.322 E28.17069 ; infill
G1 X84.678 Y93.753 E28.54492 ; infill
G1 X84.144 Y93.753 E28.56168 ; infill
G1 X76.247 Y85.856 E28.91221 ; infill
G1 X76.247 Y86.390 E28.92897 ; infill
G1 X83.610 Y93.753 E29.25581 ; infill
G1 X83.076 Y93.753 E29.27257 ; infill
G1 X76.247 Y86.924 E29.57572 ; infill
G1 X76.247 Y87.457 E29.59247 ; infill
G1 X82.543 Y93.753 E29.87193 ; infill
G1 X82.009 Y93.753 E29.88868 ; infill
G1 X76.247 Y87.991 E30.14444 ; infill
G1 X76.247 Y88.525 E30.16119 ; infill
G1 X81.475 Y93.753 E30.39325 ; infill
G1 X80.941 Y93.753 E30.41001 ; infill
G1 X76.247 Y89.059 E30.61838 ; infill
G1 X76.247 Y89.593 E30.63513 ; infill
G1 X80.407 Y93.753 E30.81980 ; infill
G1 X79.874 Y93.753 E30.83656 ; infill
G1 X76.247 Y90.126 E30.99753 ; infill
G1 X76.247 Y90.660 E31.01429 ; infill
G1 X79.340 Y93.753 E31.15157 ; infill
G1 X78.806 Y93.753 E31.16833 ; infill
G1 X76.247 Y91.194 E31.28191 ; infill
G1 X76.247 Y91.728 E31.29867 ; infill
G1 X78.272 Y93.753 E31.38856 ; infill
G1 X77.738 Y93.753 E31.40531 ; infill
G1 X76.247 Y92.262 E31.47151 ; infill
G1 X76.247 Y92.796 E31.48826 ; infill
G1 X77.204 Y93.753 E31.53076 ; infill
G1 X76.671 Y93.753 E31.54751 ; infill
G1 X76.077 Y93.160 E31.57385 ; infill
M106 S255 ; enable fan
G1 Z0.350 F7800.000 ; move to next layer (1)
M104 S200 ; set temperature
M140 S50 ; set bed temperature
G1 X93.939 Y93.939 ; move to first perimeter point
G1 F3600
G1 X76.061 Y93.939 E32.03970 ; perimeter
G1 X76.061 Y76.061 E32.50554 ; perimeter
G1 X93.939 Y76.061 E32.97138 ; perimeter
G1 X93.939 Y93.879 E33.43567 ; perimeter
G1 X94.357 Y94.357 F7800.000 ; move to first perimeter point
G1 F3600
G1 X75.643 Y94.357 E33.92328 ; perimeter
G1 X75.643 Y75.643 E34.41090 ; perimeter
G1 X94.357 Y75.643 E34.89852 ; perimeter
G1 X94.357 Y94.297 E35.38457 ; perimeter
G1 X94.775 Y94.775 F7800.000 ; move to first perimeter point
G1 F1800
G1 X75.225 Y94.775 E35.89396 ; perimeter
G1 X75.225 Y75.225 E36.40335 ; perimeter
G1 X94.775 Y75.225 E36.91274 ; perimeter
G1 X94.775 Y94.715 E37.42057 ; perimeter
G1 X94.389 Y94.671 F7800.000 ; move inwards before travel
G1 X92.957 Y93.814 ; move to first infill point
G1 F1200
G1 X93.626 Y93.145 E37.44555 ; infill
G1 X93.626 Y92.546 E37.46137 ; infill
G1 X92.546 Y93.626 E37.50170 ; infill
G1 X91.947 Y93.626 E37.51752 ; infill
G1 X93.626 Y91.947 E37.58023 ; infill
G1 X93.626 Y91.348 E37.59605 ; infill
G1 X91.348 Y93.626 E37.68113 ; infill
G1 X90.749 Y93.626 E37.69695 ; infill
G1 X93.626 Y90.749 E37.80441 ; infill
G1 X93.626 Y90.150 E37.82023 ; infill
G1 X90.150 Y93.626 E37.95006 ; infill
G1 X89.551 Y93.626 E37.96588 ; infill
G1 X93.626 Y89.551 E38.11808 ; infill
G1 X93.626 Y88.952 E38.13390 ; infill
G1 X88.952 Y93.626 E38.30848 ; infill
G1 X88.353 Y93.626 E38.32430 ; infill
G1 X93.626 Y88.353 E38.52125 ; infill
G1 X93.626 Y87.755 E38.53707 ; infill
G1 X87.755 Y93.626 E38.75640 ; infill
G1 X87.156 Y93.626 E38.77222 ; infill
G1 X93.626 Y87.156 E39.01392 ; infill
G1 X93.626 Y86.557 E39.02974 ; infill
G1 X86.557 Y93.626 E39.29381 ; infill
G1 X85.958 Y93.626 E39.30963 ; infill
G1 X93.626 Y85.958 E39.59608 ; infill
G1 X93.626 Y85.359 E39.61190 ; infill
G1 X85.359 Y93.626 E39.92072 ; infill
G1 X84.760 Y93.626 E39.93654 ; infill
G1 X93.626 Y84.760 E40.26774 ; infill
G1 X93.626 Y84.161 E40.28356 ; infill
G1 X84.161 Y93.626 E40.63713 ; infill
G1 X83.562 Y93.626 E40.65295 ; infill
G1 X93.626 Y83.562 E41.02890 ; infill
G1 X93.626 Y82.963 E41.04472 ; infill
G1 X82.963 Y93.626 E41.44304 ; infill
G1 X82.364 Y93.626 E41.45886 ; infill
G1 X93.626 Y82.364 E41.87955 ; infill
G1 X93.626 Y81.765 E41.89537 ; infill
G1 X81.765 Y93.626 E42.33844 ; infill
G1 X81.166 Y93.626 E42.35426 ; infill
G1 X93.626 Y81.166 E42.81971 ; infill
G1 X93.626 Y80.567 E42.83553 ; infill
G1 X80.567 Y93.626 E43.32334 ; infill
G1 X79.968 Y93.626 E43.33916 ; infill
G1 X93.626 Y79.968 E43.84935 ; infill
G1 X93.626 Y79.369 E43.86517 ; infill
G1 X79.369 Y93.626 E44.39774 ; infill
G1 X78.770 Y93.626 E44.41356 ; infill
G1 X93.626 Y78.770 E44.96850 ; infill
G1 X93.626 Y78.171 E44.98432 ; infill
G1 X78.171 Y93.626 E45.56163 ; infill
G1 X77.572 Y93.626 E45.57745 ; infill
G1 X93.626 Y77.572 E46.17714 ; infill
G1 X93.626 Y76.973 E46.19296 ; infill
G1 X76.973 Y93.626 E46.81502 ; infill
G1 X76.374 Y93.626 E46.83084 ; infill
G1 X93.626 Y76.374 E47.47528 ; infill
G1 X93.027 Y76.374 E47.49110 ; infill
G1 X76.374 Y93.027 E48.11316 ; infill
G1 X76.374 Y92.428 E48.12898 ; infill
G1 X92.428 Y76.374 E48.72866 ; infill
G1 X91.829 Y76.374 E48.74448 ; infill
G1 X76.374 Y91.829 E49.32179 ; infill
G1 X76.374 Y91.230 E49.33761 ; infill
G1 X91.230 Y76.374 E49.89255 ; infill
G1 X90.631 Y76.374 E49.90837 ; infill
G1 X76.374 Y90.631 E50.44093 ; infill
G1 X76.374 Y90.032 E50.45675 ; infill
G1 X90.032 Y76.374 E50.96694 ; infill
G1 X89.433 Y76.374 E50.98276 ; infill
G1 X76.374 Y89.433 E51.47057 ; infill
G1 X76.374 Y88.834 E51.48639 ; infill
G1 X88.834 Y76.374 E51.95183 ; infill
G1 X88.235 Y76.374 E51.96765 ; infill
G1 X76.374 Y88.235 E52.41072 ; infill
G1 X76.374 Y87.636 E52.42654 ; infill
G1 X87.636 Y76.374 E52.84723 ; infill
G1 X87.037 Y76.374 E52.86305 ; infill
G1 X76.374 Y87.037 E53.26137 ; infill
G1 X76.374 Y86.438 E53.27719 ; infill
G1 X86.438 Y76.374 E53.65313 ; infill
G1 X85.839 Y76.374 E53.66895 ; infill
G1 X76.374 Y85.839 E54.02252 ; infill
G1 X76.374 Y85.240 E54.03834 ; infill
G1 X85.240 Y76.374 E54.36953 ; infill
G1 X84.641 Y76.374 E54.38535 ; infill
G1 X76.374 Y84.641 E54.69417 ; infill
G1 X76.374 Y84.042 E54.70999 ; infill
G1 X84.042 Y76.374 E54.99644 ; infill
G1 X83.443 Y76.374 E55.01226 ; infill
G1 X76.374 Y83.443 E55.27633 ; infill
G1 X76.374 Y82.844 E55.29215 ; infill
G1 X82.844 Y76.374 E55.53385 ; infill
G1 X82.245 Y76.374 E55.54967 ; infill
G1 X76.374 Y82.245 E55.76899 ; infill
G1 X76.374 Y81.646 E55.78481 ; infill
G1 X81.646 Y76.374 E55.98176 ; infill
G1 X81.047 Y76.374 E55.99758 ; infill
G1 X76.374 Y81.047 E56.17216 ; infill
G1 X76.374 Y80.448 E56.18798 ; infill
G1 X80.448 Y76.374 E56.34018 ; infill
G1 X79.849 Y76.374 E56.35600 ; infill
G1 X76.374 Y79.849 E56.48582 ; infill
G1 X76.374 Y79.251 E56.50164 ; infill
G1 X79.251 Y76.374 E56.60909 ; infill
G1 X78.652 Y76.374 E56.62491 ; infill
G1 X76.374 Y78.652 E56.70999 ; infill
G1 X76.374 Y78.053 E56.72581 ; infill
G1 X78.053 Y76.374 E56.78851 ; infill
G1 X77.454 Y76.374 E56.80434 ; infill
G1 X76.374 Y77.454 E56.84466 ; infill
G1 X76.374 Y76.855 E56.86049 ; infill
G1 X77.043 Y76.186 E56.88546 ; infill
G1 Z0.500 F7800.000 ; move to next layer (2)
G1 X93.939 Y93.939 ; move to first perimeter point
G1 F3600
G1 X76.061 Y93.939 E57.35131 ; perimeter
G1 X76.061 Y76.061 E57.81715 ; perimeter
G1 X93.939 Y76.061 E58.28300 ; perimeter
G1 X93.939 Y93.879 E58.74728 ; perimeter
G1 X94.357 Y94.357 F7800.000 ; move to first perimeter point
G1 F3600
G1 X75.643 Y94.357 E59.23490 ; perimeter
G1 X75.643 Y75.643 E59.72251 ; perimeter
G1 X94.357 Y75.643 E60.21013 ; perimeter
G1 X94.357 Y94.297 E60.69619 ; perimeter
G1 X94.775 Y94.775 F7800.000 ; move to first perimeter point
G1 F1800
G1 X75.225 Y94.775 E61.20558 ; perimeter
G1 X75.225 Y75.225 E61.71497 ; perimeter
G1 X94.775 Y75.225 E62.22436 ; perimeter
G1 X94.775 Y94.715 E62.73218 ; perimeter
G1 X94.389 Y94.671 F7800.000 ; move inwards before travel
G1 X93.814 Y77.043 ; move to first infill point
G1 F1200
G1 X93.145 Y76.374 E62.75716 ; infill
G1 X92.546 Y76.374 E62.77298 ; infill
G1 X93.626 Y77.454 E62.81332 ; infill
G1 X93.626 Y78.053 E62.82914 ; infill
G1 X91.947 Y76.374 E62.89184 ; infill
G1 X91.348 Y76.374 E62.90766 ; infill
G1 X93.626 Y78.652 E62.99274 ; infill
G1 X93.626 Y79.251 E63.00856 ; infill
G1 X90.749 Y76.374 E63.11602 ; infill
G1 X90.150 Y76.374 E63.13184 ; infill
G1 X93.626 Y79.850 E63.26167 ; infill
G1 X93.626 Y80.449 E63.27749 ; infill
G1 X89.551 Y76.374 E63.42969 ; infill
G1 X88.952 Y76.374 E63.44551 ; infill
G1 X93.626 Y81.048 E63.62009 ; infill
G1 X93.626 Y81.647 E63.63591 ; infill
G1 X88.353 Y76.374 E63.83286 ; infill
G1 X87.755 Y76.374 E63.84868 ; infill
G1 X93.626 Y82.245 E64.06801 ; infill
G1 X93.626 Y82.844 E64.08383 ; infill
G1 X87.156 Y76.374 E64.32553 ; infill
G1 X86.557 Y76.374 E64.34135 ; infill
G1 X93.626 Y83.443 E64.60542 ; infill
G1 X93.626 Y84.042 E64.62124 ; infill
G1 X85.958 Y76.374 E64.90769 ; infill
G1 X85.359 Y76.374 E64.92351 ; infill
G1 X93.626 Y84.641 E65.23234 ; infill
G1 X93.626 Y85.240 E65.24816 ; infill
G1 X84.760 Y76.374 E65.57935 ; infill
G1 X84.161 Y76.374 E65.59517 ; infill
G1 X93.626 Y85.839 E65.94874 ; infill
G1 X93.626 Y86.438 E65.96457 ; infill
G1 X83.562 Y76.374 E66.34051 ; infill
G1 X82.963 Y76.374 E66.35633 ; infill
G1 X93.626 Y87.037 E66.75465 ; infill
G1 X93.626 Y87.636 E66.77047 ; infill
G1 X82.364 Y76.374 E67.19117 ; infill
G1 X81.765 Y76.374 E67.20699 ; infill
G1 X93.626 Y88.235 E67.65005 ; infill
G1 X93.626 Y88.834 E67.66588 ; infill
G1 X81.166 Y76.374 E68.13132 ; infill
G1 X80.567 Y76.374 E68.14714 ; infill
G1 X93.626 Y89.433 E68.63495 ; infill
G1 X93.626 Y90.032 E68.65078 ; infill
G1 X79.968 Y76.374 E69.16097 ; infill
G1 X79.369 Y76.374 E69.17679 ; infill
