; generated by PrusaSlicer 2.1.1+win64 on 2020-01-08 at 19:49:31 UTC

; 

; external perimeters extrusion width = 0.45mm
; perimeters extrusion width = 0.45mm
; infill extrusion width = 0.45mm
; solid infill extrusion width = 0.45mm
; top infill extrusion width = 0.40mm
; first layer extrusion width = 0.42mm

M201 X9000 Y9000 Z500 E10000 ; sets maximum accelerations, mm/sec^2
M203 X500 Y500 Z12 E120 ; sets maximum feedrates, mm/sec
M204 P1500 R1500 T1500 ; sets acceleration (P, T) and retract acceleration (R), mm/sec^2
M205 X10.00 Y10.00 Z0.20 E2.50 ; sets the jerk limits, mm/sec
M205 S0 T0 ; sets the minimum extruding and travel feed rate, mm/sec
M107
M190 S56 ; set bed temperature and wait for it to be reached
M104 S210 ; set temperature
G28 ; home all axes
G1 Z5 F5000 ; lift nozzle
M109 S210 ; set temperature and wait for it to be reached
G21 ; set units to millimeters
G90 ; use absolute coordinates
M82 ; use absolute distances for extrusion
G92 E0
M900 K30 ; Filament gcode
;LAYER:0
G1 Z0.225 F7800.000
G1 E-5.00000 F2400.00000
G92 E0
G1 X69.722 Y90.058 F7800.000
G1 E5.00000 F2400.00000
G1 F717.396
G1 X70.898 Y88.889 E5.06646
G1 X71.803 Y88.264 E5.11052
G1 X72.800 Y87.764 E5.15524
G1 X73.854 Y87.411 E5.19978
G1 X74.974 Y87.205 E5.24543
G1 X100.013 Y85.706 E6.25080
G1 X102.764 Y85.881 E6.36129
G1 X105.499 Y86.422 E6.47300
G1 X108.152 Y87.323 E6.58530
G1 X110.668 Y88.572 E6.69789
G1 X112.999 Y90.147 E6.81067
G1 X115.102 Y92.021 E6.92355
G1 X116.891 Y94.098 E7.03340
G1 X118.390 Y96.386 E7.14304
G1 X119.031 Y97.946 E7.21064
G1 X119.305 Y99.530 E7.27507
G1 X119.234 Y101.129 E7.33921
G1 X118.801 Y102.736 E7.40593
G1 X117.925 Y104.398 E7.48122
G1 X116.464 Y106.449 E7.58215
G1 X114.877 Y108.204 E7.67699
G1 X113.133 Y109.748 E7.77034
G1 X111.795 Y110.723 E7.83669
G1 X110.182 Y111.702 E7.91233
G1 X108.712 Y112.435 E7.97816
G1 X107.037 Y113.104 E8.05046
G1 X105.281 Y113.635 E8.12397
G1 X103.649 Y113.985 E8.19089
G1 X102.005 Y114.204 E8.25734
G1 X100.163 Y114.294 E8.33126
G1 X74.755 Y112.767 E9.35144
G1 X73.302 Y112.424 E9.41129
G1 X71.897 Y111.791 E9.47306
G1 X70.699 Y110.946 E9.53180
G1 X69.654 Y109.858 E9.59227
G1 X69.049 Y108.975 E9.63517
G1 X68.551 Y107.978 E9.67985
G1 X68.196 Y106.916 E9.72471
G1 X67.992 Y105.820 E9.76940
G1 X67.936 Y104.908 E9.80600
G1 X67.950 Y94.660 E10.21675
G1 X68.212 Y93.024 E10.28318
G1 X68.820 Y91.442 E10.35110
G1 X69.689 Y90.108 E10.41490
G1 E5.41490 F2400.00000
G92 E0
G1 X73.649 Y94.480 F7800.000
G1 E5.00000 F2400.00000
G1 F717.396
G1 X73.752 Y94.173 E5.01296
G1 X73.892 Y93.892 E5.02555
G1 X74.059 Y93.647 E5.03743
G1 X74.254 Y93.428 E5.04918
G1 X74.436 Y93.267 E5.05893
G1 X74.679 Y93.102 E5.07070
G1 X74.906 Y92.986 E5.08092
G1 X75.178 Y92.885 E5.09254
G1 X75.430 Y92.823 E5.10294
G1 X75.734 Y92.786 E5.11521
G1 X99.135 Y91.362 E6.05488
G1 X100.015 Y91.334 E6.09014
G1 X101.147 Y91.373 E6.13556
G1 X102.040 Y91.462 E6.17150
G1 X102.909 Y91.601 E6.20679
G1 X104.043 Y91.859 E6.25341
G1 X104.888 Y92.110 E6.28872
G1 X105.993 Y92.521 E6.33600
G1 X106.893 Y92.930 E6.37560
G1 X107.844 Y93.441 E6.41889
G1 X108.609 Y93.918 E6.45502
G1 X109.564 Y94.605 E6.50217
G1 X110.391 Y95.299 E6.54544
G1 X111.096 Y95.975 E6.58460
G1 X111.749 Y96.685 E6.62324
G1 X112.451 Y97.559 E6.66818
G1 X112.999 Y98.344 E6.70654
G1 X113.491 Y99.162 E6.74482
G1 X113.625 Y99.516 E6.75999
G1 X113.688 Y99.901 E6.77562
G1 X113.667 Y100.293 E6.79135
G1 X113.568 Y100.660 E6.80659
G1 X113.438 Y100.940 E6.81895
G1 X112.972 Y101.697 E6.85456
G1 X112.560 Y102.293 E6.88361
G1 X112.091 Y102.907 E6.91458
G1 X111.622 Y103.461 E6.94368
G1 X111.063 Y104.059 E6.97649
G1 X110.511 Y104.592 E7.00726
G1 X110.020 Y105.024 E7.03345
G1 X109.519 Y105.429 E7.05926
G1 X108.896 Y105.887 E7.09026
G1 X108.252 Y106.312 E7.12120
G1 X107.585 Y106.706 E7.15222
G1 X106.730 Y107.150 E7.19086
G1 X105.785 Y107.564 E7.23219
G1 X104.866 Y107.897 E7.27139
G1 X103.855 Y108.190 E7.31357
G1 X102.861 Y108.408 E7.35437
G1 X101.849 Y108.561 E7.39537
G1 X100.826 Y108.646 E7.43651
G1 X99.809 Y108.664 E7.47730
G1 X99.115 Y108.637 E7.50513
G1 X75.592 Y107.201 E8.44968
G1 X75.080 Y107.084 E8.47074
G1 X74.823 Y106.976 E8.48191
G1 X74.563 Y106.825 E8.49394
G1 X74.367 Y106.676 E8.50383
G1 X74.186 Y106.504 E8.51382
G1 X73.880 Y106.088 E8.53454
G1 X73.743 Y105.805 E8.54712
G1 X73.650 Y105.521 E8.55909
G1 X73.587 Y105.202 E8.57214
G1 X73.565 Y104.894 E8.58453
G1 X73.568 Y95.009 E8.98072
G1 X73.640 Y94.539 E8.99976
G1 X74.007 Y94.581 F7800.000
G1 F717.396
G1 X74.092 Y94.324 E9.01061
G1 X74.207 Y94.089 E9.02109
G1 X74.359 Y93.866 E9.03189
G1 X74.656 Y93.567 E9.04883
G1 X74.861 Y93.426 E9.05878
G1 X75.047 Y93.329 E9.06719
G1 X75.280 Y93.243 E9.07713
G1 X75.487 Y93.190 E9.08570
G1 X75.762 Y93.157 E9.09681
G1 X99.155 Y91.733 E10.03614
G1 X100.008 Y91.706 E10.07034
G1 X101.128 Y91.744 E10.11527
G1 X101.987 Y91.830 E10.14983
G1 X102.833 Y91.964 E10.18417
G1 X103.943 Y92.217 E10.22982
G1 X104.764 Y92.461 E10.26414
G1 X105.846 Y92.862 E10.31038
G1 X106.722 Y93.260 E10.34897
G1 X107.653 Y93.760 E10.39130
G1 X108.397 Y94.223 E10.42644
G1 X109.330 Y94.895 E10.47251
G1 X110.147 Y95.580 E10.51526
G1 X110.835 Y96.240 E10.55344
G1 X111.463 Y96.923 E10.59063
G1 X112.157 Y97.787 E10.63507
G1 X112.690 Y98.551 E10.67241
G1 X113.163 Y99.338 E10.70922
G1 X113.270 Y99.626 E10.72152
G1 X113.317 Y99.936 E10.73407
G1 X113.297 Y100.248 E10.74662
G1 X113.214 Y100.544 E10.75894
G1 X113.116 Y100.754 E10.76823
G1 X112.664 Y101.490 E10.80284
G1 X112.262 Y102.071 E10.83115
G1 X111.798 Y102.677 E10.86175
G1 X111.347 Y103.210 E10.88975
G1 X110.794 Y103.802 E10.92219
G1 X110.255 Y104.322 E10.95221
G1 X109.784 Y104.738 E10.97742
G1 X109.296 Y105.132 E11.00256
G1 X108.687 Y105.580 E11.03283
G1 X108.059 Y105.995 E11.06301
G1 X107.401 Y106.383 E11.09364
G1 X106.575 Y106.812 E11.13095
G1 X105.653 Y107.217 E11.17131
G1 X104.756 Y107.542 E11.20953
G1 X103.769 Y107.829 E11.25072
G1 X102.787 Y108.044 E11.29102
G1 X101.800 Y108.192 E11.33102
G1 X100.802 Y108.275 E11.37119
G1 X99.818 Y108.292 E11.41061
G1 X99.135 Y108.266 E11.43799
G1 X75.630 Y106.831 E12.38185
G1 X75.209 Y106.735 E12.39915
G1 X74.979 Y106.638 E12.40915
G1 X74.761 Y106.510 E12.41926
G1 X74.455 Y106.246 E12.43549
G1 X74.206 Y105.909 E12.45227
G1 X74.092 Y105.676 E12.46267
G1 X74.006 Y105.416 E12.47362
G1 X73.954 Y105.144 E12.48476
G1 X73.937 Y104.887 E12.49505
G1 X73.940 Y95.023 E12.89043
G1 X73.998 Y94.640 E12.90593
G1 E7.90593 F2400.00000
G92 E0
G1 X112.901 Y100.214 F7800.000
G1 E5.00000 F2400.00000
G1 F717.396
G1 X112.811 Y100.480 E5.01127
G1 X112.512 Y100.991 E5.03497
G1 X112.087 Y101.635 E5.06590
G1 X111.676 Y102.193 E5.09368
G1 X111.270 Y102.695 E5.11956
G1 X110.865 Y103.154 E5.14410
G1 X110.375 Y103.661 E5.17237
G1 X109.906 Y104.105 E5.19823
G1 X109.341 Y104.590 E5.22809
G1 X108.775 Y105.029 E5.25681
G1 X108.262 Y105.391 E5.28197
G1 X107.744 Y105.724 E5.30664
G1 X107.099 Y106.098 E5.33654
G1 X106.263 Y106.522 E5.37410
G1 X105.372 Y106.902 E5.41292
G1 X104.510 Y107.206 E5.44957
G1 X103.516 Y107.484 E5.49094
G1 X102.560 Y107.683 E5.53005
G1 X101.690 Y107.806 E5.56528
G1 X100.784 Y107.880 E5.60172
G1 X99.824 Y107.896 E5.64018
G1 X99.155 Y107.870 E5.66701
G1 X75.789 Y106.448 E6.60528
G1 X75.557 Y106.420 E6.61465
G1 X75.226 Y106.317 E6.62852
G1 X75.058 Y106.230 E6.63610
G1 X74.886 Y106.110 E6.64451
G1 X74.748 Y105.980 E6.65212
G1 X74.549 Y105.710 E6.66555
G1 X74.457 Y105.521 E6.67398
G1 X74.388 Y105.312 E6.68281
G1 X74.347 Y105.092 E6.69179
G1 X74.332 Y104.875 E6.70048
G1 X74.335 Y95.043 E7.09455
G1 X74.389 Y94.685 E7.10909
G1 X74.457 Y94.479 E7.11775
G1 X74.559 Y94.272 E7.12702
G1 X74.669 Y94.113 E7.13476
G1 X74.816 Y93.952 E7.14349
G1 X74.970 Y93.827 E7.15145
G1 X75.143 Y93.723 E7.15953
G1 X75.452 Y93.606 E7.17278
G1 X75.794 Y93.551 E7.18666
G1 X99.173 Y92.129 E8.12544
G1 X100.067 Y92.103 E8.16130
G1 X101.126 Y92.141 E8.20376
G1 X101.936 Y92.223 E8.23638
G1 X102.755 Y92.353 E8.26961
G1 X103.840 Y92.599 E8.31422
G1 X104.640 Y92.837 E8.34766
G1 X105.695 Y93.228 E8.39276
G1 X106.546 Y93.615 E8.43021
G1 X107.455 Y94.103 E8.47158
G1 X108.176 Y94.551 E8.50560
G1 X109.088 Y95.208 E8.55064
G1 X109.884 Y95.875 E8.59226
G1 X110.553 Y96.518 E8.62946
G1 X111.163 Y97.181 E8.66556
G1 X111.783 Y97.948 E8.70512
G1 X112.317 Y98.703 E8.74218
G1 X112.808 Y99.513 E8.78015
G1 X112.886 Y99.723 E8.78912
G1 X112.922 Y99.969 E8.79908
G1 X112.906 Y100.154 E8.80651
G1 X112.633 Y100.301 F7800.000
G1 E3.80651 F2400.00000
G92 E0
G1 X110.572 Y102.114 F7800.000
G1 E5.00000 F2400.00000
G1 F717.396
G1 X110.684 Y102.271 E5.00773
G1 X110.742 Y102.468 E5.01599
G1 X110.750 Y102.628 E5.02239
G1 X110.720 Y102.819 E5.03016
G1 X110.662 Y102.960 E5.03626
G1 X110.581 Y103.076 E5.04192
G1 X110.426 Y103.192 E5.04969
G1 X110.228 Y103.260 E5.05810
G1 X109.959 Y103.289 E5.06891
G1 X108.230 Y103.284 E5.13821
G1 X107.653 Y103.313 E5.16139
G1 X107.496 Y103.293 E5.16770
G1 X107.309 Y103.220 E5.17578
G1 X107.109 Y103.012 E5.18733
G1 X107.004 Y102.725 E5.19958
G1 X106.986 Y102.476 E5.20959
G1 X107.028 Y102.236 E5.21931
G1 X107.127 Y101.996 E5.22974
G1 X107.299 Y101.714 E5.24299
G1 X108.802 Y99.640 E5.34566
G1 X108.380 Y99.685 E5.36267
G1 X108.005 Y99.687 E5.37773
G1 X107.579 Y99.641 E5.39489
G1 X107.425 Y99.595 E5.40134
G1 X107.243 Y99.496 E5.40961
G1 X107.092 Y99.301 E5.41954
G1 X107.031 Y99.089 E5.42837
G1 X107.033 Y98.851 E5.43788
G1 X107.130 Y98.577 E5.44953
G1 X107.274 Y98.426 E5.45793
G1 X107.459 Y98.335 E5.46617
G1 X107.684 Y98.287 E5.47539
G1 X107.906 Y98.271 E5.48433
G1 X110.049 Y98.275 E5.57022
G1 X110.322 Y98.342 E5.58146
G1 X110.482 Y98.461 E5.58948
G1 X110.571 Y98.586 E5.59559
G1 X110.654 Y98.831 E5.60597
G1 X110.668 Y99.083 E5.61608
G1 X110.616 Y99.356 E5.62722
G1 X110.512 Y99.592 E5.63757
G1 X110.272 Y99.958 E5.65512
G1 X109.047 Y101.679 E5.73977
G1 X108.907 Y101.913 E5.75069
G1 X109.740 Y101.873 E5.78413
G1 X110.187 Y101.923 E5.80214
G1 X110.452 Y102.023 E5.81350
G1 X110.524 Y102.078 E5.81711
G1 X110.758 Y102.064 F7800.000
G1 X111.088 Y102.328
G1 F717.396
G1 X111.023 Y102.106 E5.82641
G1 X110.841 Y101.852 E5.83894
G1 X110.634 Y101.694 E5.84937
G1 X110.275 Y101.559 E5.86475
G1 X109.639 Y101.488 E5.89036
G1 X110.579 Y100.168 E5.95532
G1 X110.839 Y99.770 E5.97436
G1 X110.974 Y99.467 E5.98765
G1 X111.041 Y99.107 E6.00233
G1 X111.022 Y98.760 E6.01628
G1 X110.905 Y98.415 E6.03086
G1 X110.751 Y98.198 E6.04153
G1 X110.483 Y97.999 E6.05492
G1 X110.095 Y97.903 E6.07094
G1 X107.894 Y97.899 E6.15916
G1 X107.631 Y97.918 E6.16970
G1 X107.336 Y97.982 E6.18182
G1 X107.051 Y98.122 E6.19453
G1 X106.745 Y98.441 E6.21227
G1 X106.575 Y98.213 E6.22368
G1 X106.317 Y98.012 E6.23679
G1 X106.001 Y97.899 E6.25025
G1 X105.660 Y97.918 E6.26393
G1 X105.363 Y98.062 E6.27717
G1 X105.132 Y98.282 E6.28994
G1 X104.941 Y98.561 E6.30351
G1 X104.784 Y98.895 E6.31829
G1 X104.608 Y99.400 E6.33973
G1 X104.445 Y99.396 E6.34627
G1 X104.254 Y98.730 E6.37402
G1 X104.130 Y98.452 E6.38622
G1 X103.928 Y98.204 E6.39907
G1 X103.648 Y98.020 E6.41248
G1 X103.362 Y97.924 E6.42457
G1 X103.020 Y97.895 E6.43833
G1 X102.616 Y97.999 E6.45501
G1 X102.351 Y98.222 E6.46892
G1 X102.163 Y98.540 E6.48372
G1 X101.893 Y98.169 E6.50212
G1 X101.521 Y97.931 E6.51983
G1 X101.075 Y97.894 E6.53779
G1 X100.690 Y98.060 E6.55456
G1 X100.436 Y98.271 E6.56781
G1 X100.165 Y98.599 E6.58486
G1 X99.979 Y98.329 E6.59798
G1 X99.760 Y98.117 E6.61021
G1 X99.570 Y97.998 E6.61920
G1 X99.356 Y97.920 E6.62834
G1 X99.085 Y97.895 E6.63924
G1 X98.818 Y97.942 E6.65009
G1 X98.578 Y98.045 E6.66055
G1 X98.258 Y98.311 E6.67722
G1 X98.084 Y98.715 E6.69488
G1 X98.107 Y99.132 E6.71161
G1 X98.215 Y99.451 E6.72510
G1 X98.801 Y100.510 E6.77360
G1 X98.968 Y100.762 E6.78573
G1 X98.709 Y101.127 E6.80365
G1 X98.278 Y101.884 E6.83858
G1 X98.168 Y101.624 E6.84989
G1 X98.016 Y101.389 E6.86112
G1 X97.823 Y101.183 E6.87240
G1 X97.601 Y101.018 E6.88352
G1 X97.351 Y100.891 E6.89475
G1 X97.074 Y100.810 E6.90631
G1 X96.747 Y100.781 E6.91948
G1 X96.397 Y100.824 E6.93360
G1 X96.107 Y100.922 E6.94587
G1 X96.188 Y100.368 E6.96831
G1 X96.203 Y99.980 E6.98388
G1 X96.181 Y99.437 E7.00566
G1 X96.080 Y98.794 E7.03175
G1 X95.994 Y98.486 E7.04458
G1 X95.832 Y98.076 E7.06224
G1 X95.552 Y97.598 E7.08444
G1 X95.238 Y97.231 E7.10382
G1 X94.836 Y96.910 E7.12439
G1 X94.389 Y96.692 E7.14437
G1 X93.860 Y96.554 E7.16626
G1 X93.365 Y96.489 E7.18627
G1 X91.713 Y96.452 E7.25252
G1 X91.343 Y96.491 E7.26741
G1 X90.945 Y96.644 E7.28452
G1 X90.626 Y96.955 E7.30237
G1 X90.506 Y97.387 E7.32031
G1 X90.553 Y98.063 E7.34747
G1 X90.548 Y101.659 E7.49162
G1 X90.530 Y102.278 E7.51644
G1 X90.559 Y102.609 E7.52975
G1 X90.650 Y102.917 E7.54262
G1 X90.817 Y103.191 E7.55546
G1 X91.058 Y103.386 E7.56791
G1 X91.300 Y103.477 E7.57825
G1 X91.590 Y103.501 E7.58992
G1 X92.048 Y103.458 E7.60836
G1 X92.858 Y103.466 E7.64082
G1 X93.411 Y103.437 E7.66302
G1 X93.999 Y103.343 E7.68688
G1 X94.487 Y103.178 E7.70755
G1 X94.841 Y102.979 E7.72380
G1 X95.215 Y102.672 E7.74319
G1 X95.330 Y103.032 E7.75834
G1 X95.478 Y103.284 E7.77006
G1 X95.669 Y103.506 E7.78178
G1 X95.984 Y103.743 E7.79759
G1 X96.254 Y103.863 E7.80941
G1 X96.524 Y103.929 E7.82056
G1 X96.802 Y103.948 E7.83175
G1 X97.080 Y103.918 E7.84294
G1 X97.362 Y103.835 E7.85474
G1 X97.706 Y103.643 E7.87053
G1 X97.925 Y103.447 E7.88231
G1 X98.146 Y103.164 E7.89669
G1 X98.365 Y103.422 E7.91029
G1 X98.744 Y103.630 E7.92760
G1 X99.193 Y103.674 E7.94570
G1 X99.589 Y103.493 E7.96315
G1 X99.823 Y103.260 E7.97638
G1 X100.125 Y102.833 E7.99736
G1 X100.251 Y103.059 E8.00772
G1 X100.485 Y103.382 E8.02374
G1 X100.749 Y103.581 E8.03699
G1 X101.075 Y103.680 E8.05063
G1 X101.417 Y103.671 E8.06436
G1 X101.751 Y103.563 E8.07843
G1 X102.073 Y103.303 E8.09501
G1 X102.238 Y102.973 E8.10982
G1 X102.282 Y102.626 E8.12384
G1 X102.229 Y102.274 E8.13810
G1 X102.064 Y101.906 E8.15425
G1 X101.367 Y100.726 E8.20919
G1 X101.423 Y100.563 E8.21610
G1 X102.171 Y99.299 E8.27496
G1 X102.276 Y99.669 E8.29039
G1 X102.582 Y100.412 E8.32258
G1 X103.177 Y102.020 E8.39131
G1 X103.446 Y102.634 E8.41818
G1 X103.463 Y102.714 E8.42149
G1 X103.434 Y102.814 E8.42563
G1 X103.250 Y103.199 E8.44276
G1 X103.037 Y103.755 E8.46660
G1 X102.937 Y103.922 E8.47441
G1 X102.838 Y104.002 E8.47954
G1 X102.739 Y104.046 E8.48386
G1 X102.234 Y104.192 E8.50495
G1 X101.959 Y104.370 E8.51808
G1 X101.765 Y104.653 E8.53181
G1 X101.700 Y104.970 E8.54481
G1 X101.714 Y105.201 E8.55409
G1 X101.769 Y105.430 E8.56351
G1 X101.914 Y105.734 E8.57699
G1 X102.189 Y106.019 E8.59287
G1 X102.437 Y106.143 E8.60399
G1 X102.741 Y106.204 E8.61642
G1 X103.064 Y106.190 E8.62938
G1 X103.411 Y106.111 E8.64363
G1 X103.673 Y106.021 E8.65474
G1 X104.001 Y105.859 E8.66938
G1 X104.346 Y105.581 E8.68716
G1 X104.562 Y105.304 E8.70124
G1 X104.701 Y105.070 E8.71215
G1 X104.984 Y104.446 E8.73961
G1 X105.371 Y103.449 E8.78245
G1 X106.326 Y100.781 E8.89603
G1 X106.535 Y100.145 E8.92286
G1 X106.803 Y99.535 E8.94957
G1 X106.997 Y99.786 E8.96228
G1 X107.281 Y99.940 E8.97524
G1 X107.506 Y100.007 E8.98462
G1 X108.035 Y100.064 E9.00597
G1 X106.989 Y101.507 E9.07741
G1 X106.794 Y101.827 E9.09242
G1 X106.668 Y102.133 E9.10567
G1 X106.612 Y102.457 E9.11885
G1 X106.637 Y102.804 E9.13278
G1 X106.787 Y103.213 E9.15024
G1 X107.097 Y103.536 E9.16819
G1 X107.404 Y103.656 E9.18141
G1 X107.639 Y103.686 E9.19088
G1 X108.239 Y103.656 E9.21497
G1 X109.853 Y103.660 E9.27967
G1 X109.106 Y104.302 E9.31914
G1 X108.554 Y104.730 E9.34715
G1 X108.054 Y105.083 E9.37165
G1 X107.550 Y105.406 E9.39566
G1 X106.922 Y105.771 E9.42479
G1 X106.106 Y106.184 E9.46145
G1 X105.237 Y106.555 E9.49930
G1 X104.398 Y106.851 E9.53498
G1 X103.428 Y107.122 E9.57535
G1 X102.496 Y107.316 E9.61348
G1 X101.649 Y107.437 E9.64778
G1 X100.766 Y107.509 E9.68330
G1 X99.828 Y107.524 E9.72087
G1 X99.174 Y107.499 E9.74712
G1 X75.625 Y106.054 E10.69274
G1 X75.375 Y105.976 E10.70322
G1 X75.251 Y105.911 E10.70884
G1 X75.027 Y105.732 E10.72033
G1 X74.868 Y105.517 E10.73104
G1 X74.749 Y105.219 E10.74390
G1 X74.704 Y104.863 E10.75829
G1 X74.705 Y102.028 E10.87193
G1 X74.870 Y101.984 E10.87880
G1 X75.049 Y102.295 E10.89319
G1 X75.291 Y102.621 E10.90947
