; generated by PrusaSlicer 2.1.0+win64 on 2019-12-28 at 08:48:29 UTC

; 

; external perimeters extrusion width = 0.45mm
; perimeters extrusion width = 0.45mm
; infill extrusion width = 0.45mm
; solid infill extrusion width = 0.45mm
; top infill extrusion width = 0.40mm
; first layer extrusion width = 0.42mm

M107
M190 S56 ; set bed temperature and wait for it to be reached
M104 S210 ; set temperature
G28 ; home all axes
G1 Z5 F5000 ; lift nozzle
M109 S210 ; set temperature and wait for it to be reached
G21 ; set units to millimeters
G90 ; use absolute coordinates
M82 ; use absolute distances for extrusion
G92 E0
M900 K30 ; Filament gcode
G1 Z0.200 F7800.000
G1 E-5.00000 F2400.00000
G92 E0
G1 X46.942 Y46.023 F7800.000
G1 E5.00000 F2400.00000
G1 F1800
G1 X47.616 Y45.583 E5.02523
G1 X48.341 Y45.235 E5.05045
G1 X49.106 Y44.984 E5.07568
G1 X49.896 Y44.834 E5.10090
G1 X63.840 Y43.814 E5.53926
G1 X64.996 Y43.800 E5.57552
G1 X66.909 Y44.013 E5.63586
G1 X71.818 Y45.147 E5.79383
G1 X73.275 Y45.720 E5.84293
G1 X74.453 Y46.439 E5.88619
G1 X132.495 Y91.926 E8.19834
G1 X133.277 Y92.646 E8.23168
G1 X133.997 Y93.550 E8.26790
G1 X134.541 Y94.517 E8.30268
G1 X134.945 Y95.625 E8.33968
G1 X135.151 Y96.738 E8.37515
G1 X135.186 Y111.979 E8.85305
G1 X135.028 Y113.385 E8.89739
G1 X134.589 Y114.731 E8.94178
G1 X133.901 Y115.932 E8.98517
G1 X133.002 Y116.955 E9.02786
G1 X131.824 Y117.838 E9.07404
G1 X107.439 Y132.011 E9.95837
G1 X103.687 Y134.011 E10.09170
G1 X101.515 Y135.003 E10.16655
G1 X97.623 Y136.462 E10.29688
G1 X95.504 Y137.087 E10.36615
G1 X93.264 Y137.621 E10.43836
G1 X91.136 Y138.008 E10.50618
G1 X88.914 Y138.293 E10.57641
G1 X86.629 Y138.462 E10.64824
G1 X84.507 Y138.510 E10.71481
G1 X80.963 Y138.345 E10.82605
G1 X77.450 Y137.838 E10.93733
G1 X75.375 Y137.350 E11.00416
G1 X73.691 Y136.830 E11.05943
G1 X72.007 Y136.191 E11.11589
G1 X69.627 Y135.068 E11.19841
G1 X22.325 Y108.211 E12.90392
G1 X21.250 Y107.518 E12.94401
G1 X20.250 Y106.617 E12.98623
G1 X19.440 Y105.583 E13.02741
G1 X18.831 Y104.426 E13.06840
G1 X18.445 Y103.200 E13.10870
G1 X18.284 Y101.843 E13.15154
G1 X18.293 Y81.556 E13.78763
G1 X18.416 Y80.555 E13.81927
G1 X18.697 Y79.540 E13.85226
G1 X19.135 Y78.559 E13.88597
G1 X19.666 Y77.723 E13.91700
G1 X45.961 Y46.940 E15.18639
G1 X46.898 Y46.064 E15.22662
; printing object fan-duct_vent_tgt_v4b.STL id:0 copy 0
G1 E10.22662 F2400.00000
G92 E0
G1 X99.538 Y87.296 F7800.000
G1 E5.00000 F2400.00000
G1 F1800
G1 X106.474 Y91.300 E5.25112
G1 X106.474 Y99.293 E5.50172
G1 X105.054 Y99.061 E5.54685
G1 X104.960 Y99.634 E5.56504
G1 X106.474 Y99.880 E5.61313
G1 X106.474 Y102.442 E5.69346
G1 X106.295 Y105.237 E5.78126
G1 X105.744 Y108.073 E5.87185
G1 X104.150 Y108.744 E5.92607
G1 X104.187 Y108.925 E5.93188
G1 X105.508 Y108.924 E5.97331
G1 X105.046 Y110.151 E6.01441
G1 X104.438 Y111.640 E6.06485
G1 X103.732 Y113.007 E6.11307
G1 X102.911 Y114.393 E6.16359
G1 X102.021 Y115.648 E6.21182
G1 X101.006 Y116.898 E6.26233
G1 X99.949 Y118.016 E6.31056
G1 X98.761 Y119.104 E6.36108
G1 X97.558 Y120.063 E6.40930
G1 X96.223 Y120.965 E6.45982
G1 X94.898 Y121.745 E6.50804
G1 X93.445 Y122.442 E6.55856
G1 X92.023 Y123.029 E6.60679
G1 X90.484 Y123.505 E6.65730
G1 X88.994 Y123.888 E6.70553
G1 X87.402 Y124.132 E6.75605
G1 X85.873 Y124.303 E6.80427
G1 X84.262 Y124.311 E6.85479
G1 X82.724 Y124.266 E6.90302
G1 X81.130 Y124.038 E6.95353
G1 X79.614 Y123.777 E7.00176
G1 X78.069 Y123.318 E7.05228
G1 X76.604 Y122.848 E7.10052
G1 X73.807 Y121.528 E7.19749
G1 X73.535 Y120.924 E7.21826
G1 X73.359 Y120.329 E7.23773
G1 X73.313 Y119.975 E7.24893
G1 X73.152 Y119.944 E7.25404
G1 X72.650 Y120.838 E7.28619
G1 X70.623 Y119.338 E7.36524
G1 X68.921 Y117.777 E7.43768
G1 X67.327 Y115.970 E7.51321
G1 X67.454 Y115.456 E7.52980
G1 X67.661 Y114.835 E7.55033
G1 X67.498 Y114.743 E7.55617
G1 X66.907 Y115.436 E7.58474
G1 X65.445 Y113.134 E7.67026
G1 X64.239 Y110.616 E7.75778
G1 X63.363 Y107.964 E7.84537
G1 X62.832 Y105.222 E7.93292
G1 X62.654 Y102.442 E8.02027
G1 X62.654 Y91.300 E8.36962
G1 X69.590 Y87.296 E8.62074
G1 X69.590 Y102.426 E9.09515
G1 X69.819 Y105.035 E9.17727
G1 X70.494 Y107.556 E9.25911
G1 X71.597 Y109.922 E9.34094
G1 X73.094 Y112.060 E9.42279
G1 X74.879 Y113.853 E9.50209
G1 X77.078 Y115.402 E9.58644
G1 X79.519 Y116.532 E9.67080
G1 X81.964 Y117.181 E9.75010
G1 X84.457 Y117.404 E9.82857
G1 X84.672 Y117.404 E9.83532
G1 X87.164 Y117.181 E9.91377
G1 X89.685 Y116.505 E9.99561
G1 X92.051 Y115.402 E10.07745
G1 X94.189 Y113.905 E10.15929
G1 X95.968 Y112.134 E10.23800
G1 X96.100 Y111.975 E10.24448
G1 X97.531 Y109.922 E10.32295
G1 X98.594 Y107.656 E10.40142
G1 X98.665 Y107.462 E10.40790
G1 X99.310 Y105.036 E10.48662
G1 X99.538 Y102.426 E10.56875
G1 X99.538 Y87.356 E11.04128
G1 X99.677 Y86.920 F7800.000
G1 X100.906 Y87.215
G1 F1800
G1 X100.989 Y87.029 E11.04766
G1 X101.208 Y87.099 E11.05487
G1 X101.479 Y87.231 E11.06432
G1 X110.008 Y92.155 E11.37311
G1 X114.573 Y96.015 E11.56056
G1 X115.311 Y96.544 E11.58901
G1 X116.157 Y96.967 E11.61868
G1 X117.062 Y97.252 E11.64843
G1 X117.970 Y97.386 E11.67719
G1 X118.378 Y97.400 E11.69000
G1 X127.577 Y97.400 E11.97842
G1 X127.838 Y97.430 E11.98665
G1 X128.034 Y97.513 E11.99333
G1 X128.034 Y111.713 E12.43856
G1 X127.079 Y111.897 E12.46904
G1 X125.938 Y112.209 E12.50614
G1 X124.760 Y112.646 E12.54552
G1 X122.938 Y113.480 E12.60836
G1 X121.042 Y114.478 E12.67555
G1 X119.032 Y115.664 E12.74870
G1 X117.657 Y116.538 E12.79980
G1 X114.914 Y118.391 E12.90360
G1 X111.409 Y120.861 E13.03802
G1 X108.525 Y122.863 E13.14810
G1 X107.267 Y123.704 E13.19556
G1 X105.565 Y124.793 E13.25889
G1 X103.878 Y125.807 E13.32062
G1 X102.177 Y126.755 E13.38170
G1 X100.476 Y127.619 E13.44150
G1 X98.780 Y128.393 E13.49996
G1 X97.039 Y129.094 E13.55881
G1 X95.303 Y129.696 E13.61642
G1 X93.536 Y130.210 E13.67412
G1 X91.792 Y130.621 E13.73030
G1 X89.995 Y130.947 E13.78756
G1 X88.147 Y131.180 E13.84595
G1 X86.408 Y131.312 E13.90063
G1 X84.620 Y131.358 E13.95673
G1 X82.867 Y131.313 E14.01170
G1 X81.618 Y131.222 E14.05096
G1 X80.152 Y131.048 E14.09725
G1 X78.729 Y130.801 E14.14255
G1 X77.344 Y130.473 E14.18716
G1 X76.014 Y130.065 E14.23077
G1 X74.657 Y129.547 E14.27632
G1 X74.231 Y129.362 E14.29090
G1 X72.946 Y128.731 E14.33577
G1 X71.676 Y127.996 E14.38179
G1 X70.475 Y127.188 E14.42717
G1 X69.320 Y126.293 E14.47298
G1 X67.948 Y125.060 E14.53082
G1 X66.852 Y123.921 E14.58037
G1 X65.828 Y122.711 E14.63008
G1 X64.869 Y121.423 E14.68045
G1 X63.970 Y120.053 E14.73180
G1 X63.471 Y119.208 E14.76256
G1 X62.660 Y117.675 E14.81694
G1 X61.938 Y116.096 E14.87138
G1 X61.309 Y114.486 E14.92558
G1 X60.756 Y112.806 E14.98106
G1 X60.278 Y111.015 E15.03916
G1 X59.935 Y109.363 E15.09206
G1 X59.684 Y107.713 E15.14440
G1 X59.525 Y106.072 E15.19610
G1 X59.458 Y104.145 E15.25656
G1 X59.470 Y91.954 E15.63880
G1 X69.542 Y86.139 E16.00345
G1 X69.542 Y86.452 E16.01329
G1 X61.900 Y90.865 E16.28997
G1 X61.900 Y102.466 E16.65373
G1 X62.082 Y105.318 E16.74334
G1 X62.632 Y108.154 E16.83392
G1 X63.540 Y110.902 E16.92466
G1 X64.787 Y113.503 E17.01510
G1 X66.817 Y116.703 E17.13391
G1 X66.891 Y116.616 E17.13749
G1 X68.382 Y118.305 E17.20813
G1 X70.143 Y119.921 E17.28307
G1 X72.889 Y121.953 E17.39018
G1 X73.046 Y121.674 E17.40018
G1 X73.234 Y122.092 E17.41453
G1 X76.327 Y123.551 E17.52178
G1 X77.847 Y124.038 E17.57181
G1 X79.442 Y124.513 E17.62399
G1 X81.012 Y124.783 E17.67396
G1 X82.660 Y125.018 E17.72614
G1 X84.253 Y125.065 E17.77611
G1 X85.917 Y125.057 E17.82829
G1 X87.501 Y124.880 E17.87825
G1 X89.146 Y124.627 E17.93043
G1 X90.689 Y124.231 E17.98040
G1 X92.279 Y123.739 E18.03258
G1 X93.752 Y123.131 E18.08255
G1 X95.253 Y122.411 E18.13473
G1 X96.626 Y121.603 E18.18469
G1 X98.005 Y120.671 E18.23687
G1 X99.251 Y119.678 E18.28684
G1 X100.478 Y118.554 E18.33902
G1 X101.573 Y117.396 E18.38898
G1 X102.622 Y116.104 E18.44116
G1 X103.544 Y114.804 E18.49113
G1 X104.393 Y113.373 E18.54331
G1 X105.124 Y111.957 E18.59328
G1 X105.748 Y110.426 E18.64509
G1 X106.447 Y108.569 E18.70731
G1 X106.431 Y108.489 E18.70988
G1 X107.044 Y105.333 E18.81068
G1 X107.229 Y102.466 E18.90076
G1 X107.229 Y90.865 E19.26452
G1 X100.958 Y87.245 E19.49153
G1 E14.49153 F2400.00000
G92 E0
G1 X62.277 Y91.082 F7800.000
G1 E5.00000 F2400.00000
G1 F1800
G1 X62.277 Y102.454 E5.35655
G1 X62.457 Y105.270 E5.44503
G1 X62.998 Y108.059 E5.53410
G1 X63.890 Y110.759 E5.62326
G1 X64.412 Y111.821 E5.66036
G1 X64.981 Y113.044 E5.70267
G1 X65.116 Y113.318 E5.71225
G1 X66.862 Y116.070 E5.81441
G1 X66.887 Y116.041 E5.81561
G1 X68.652 Y118.041 E5.89925
G1 X70.383 Y119.630 E5.97293
G1 X72.770 Y121.395 E6.06601
G1 X73.105 Y120.799 E6.08746
G1 X73.181 Y121.056 E6.09586
G1 X73.520 Y121.810 E6.12179
G1 X76.466 Y123.199 E6.22391
G1 X77.958 Y123.678 E6.27304
G1 X79.528 Y124.145 E6.32439
G1 X81.071 Y124.410 E6.37349
G1 X82.692 Y124.642 E6.42484
G1 X84.257 Y124.688 E6.47393
G1 X85.895 Y124.680 E6.52528
G1 X87.451 Y124.506 E6.57438
G1 X89.070 Y124.257 E6.62573
G1 X90.587 Y123.868 E6.67482
G1 X92.151 Y123.384 E6.72617
G1 X93.598 Y122.786 E6.77527
G1 X95.075 Y122.078 E6.82661
G1 X96.424 Y121.284 E6.87571
G1 X97.781 Y120.367 E6.92706
G1 X99.006 Y119.391 E6.97616
G1 X100.213 Y118.285 E7.02750
G1 X101.289 Y117.147 E7.07660
G1 X102.322 Y115.876 E7.12795
G1 X103.228 Y114.599 E7.17704
G1 X104.062 Y113.190 E7.22839
G1 X104.781 Y111.798 E7.27749
G1 X105.397 Y110.289 E7.32861
G1 X106.056 Y108.538 E7.38727
G1 X106.021 Y108.365 E7.39280
G1 X106.076 Y108.342 E7.39464
G1 X106.670 Y105.285 E7.49230
G1 X106.851 Y102.454 E7.58124
G1 X106.851 Y91.082 E7.93780
G1 X99.597 Y86.894 E8.20045
G1 X99.932 Y86.715 E8.21237
G1 X100.179 Y86.635 E8.22051
G1 X100.453 Y86.596 E8.22920
G1 X100.746 Y86.600 E8.23838
G1 X101.049 Y86.652 E8.24800
G1 X101.349 Y86.749 E8.25790
G1 X101.656 Y86.898 E8.26859
G1 X110.225 Y91.846 E8.57886
G1 X114.805 Y95.717 E8.76689
G1 X115.506 Y96.220 E8.79394
G1 X116.299 Y96.617 E8.82172
G1 X117.147 Y96.883 E8.84960
G1 X118.004 Y97.010 E8.87675
G1 X127.589 Y97.022 E9.17729
G1 X127.934 Y97.065 E9.18818
G1 X128.076 Y97.113 E9.19289
G1 X128.288 Y97.239 E9.20063
G1 X128.386 Y97.359 E9.20548
G1 X128.411 Y97.471 E9.20909
G1 X128.399 Y111.981 E9.66404
G1 X128.280 Y112.050 E9.66836
G1 X127.165 Y112.264 E9.70395
G1 X126.053 Y112.569 E9.74008
G1 X124.904 Y112.994 E9.77850
G1 X123.104 Y113.819 E9.84058
G1 X121.225 Y114.808 E9.90716
G1 X119.229 Y115.985 E9.97982
G1 X117.863 Y116.853 E10.03055
G1 X115.128 Y118.702 E10.13407
G1 X111.625 Y121.170 E10.26842
G1 X108.738 Y123.175 E10.37865
G1 X107.473 Y124.020 E10.42633
G1 X105.764 Y125.113 E10.48994
G1 X104.067 Y126.134 E10.55203
G1 X102.354 Y127.088 E10.61353
G1 X100.640 Y127.959 E10.67381
G1 X98.929 Y128.740 E10.73278
G1 X97.171 Y129.447 E10.79219
G1 X95.417 Y130.056 E10.85039
G1 X93.632 Y130.575 E10.90869
G1 X91.868 Y130.990 E10.96549
G1 X90.052 Y131.320 E11.02337
G1 X88.185 Y131.556 E11.08238
G1 X86.427 Y131.689 E11.13765
G1 X84.620 Y131.735 E11.19435
G1 X82.848 Y131.690 E11.24990
G1 X81.582 Y131.598 E11.28971
G1 X80.098 Y131.422 E11.33658
G1 X78.653 Y131.170 E11.38256
G1 X77.245 Y130.837 E11.42791
G1 X75.892 Y130.422 E11.47231
G1 X74.514 Y129.897 E11.51852
G1 X74.072 Y129.704 E11.53364
G1 X72.768 Y129.064 E11.57919
G1 X71.476 Y128.316 E11.62601
G1 X70.254 Y127.493 E11.67219
G1 X69.079 Y126.583 E11.71878
G1 X67.681 Y125.327 E11.77771
G1 X66.572 Y124.174 E11.82788
G1 X65.533 Y122.945 E11.87834
G1 X64.559 Y121.639 E11.92943
G1 X63.650 Y120.252 E11.98141
G1 X63.142 Y119.392 E12.01272
G1 X62.322 Y117.842 E12.06772
G1 X61.591 Y116.244 E12.12284
G1 X60.954 Y114.614 E12.17769
G1 X60.394 Y112.913 E12.23384
G1 X59.911 Y111.102 E12.29260
G1 X59.564 Y109.430 E12.34615
G1 X59.309 Y107.759 E12.39914
G1 X59.149 Y106.096 E12.45152
G1 X59.081 Y104.151 E12.51255
G1 X59.081 Y92.169 E12.88823
G1 X59.105 Y91.730 E12.90204
G1 X69.920 Y85.486 E13.29359
G1 X69.920 Y86.670 E13.33073
G1 X62.329 Y91.052 E13.60554
G1 E8.60554 F2400.00000
G92 E0
G1 X58.739 Y91.505 F7800.000
G1 E5.00000 F2400.00000
G1 F1800
G1 X70.297 Y84.832 E5.41844
G1 X70.297 Y102.444 E5.97063
G1 X70.472 Y104.667 E6.04057
G1 X70.994 Y106.845 E6.11077
G1 X71.855 Y108.920 E6.18121
G1 X73.019 Y110.819 E6.25106
G1 X74.475 Y112.524 E6.32137
G1 X76.178 Y113.979 E6.39157
G1 X78.087 Y115.149 E6.46178
G1 X80.155 Y116.005 E6.53198
G1 X82.341 Y116.529 E6.60245
G1 X84.562 Y116.704 E6.67231
G1 X86.806 Y116.526 E6.74287
G1 X88.974 Y116.005 E6.81278
G1 X91.042 Y115.149 E6.88298
G1 X92.951 Y113.979 E6.95319
G1 X94.661 Y112.517 E7.02370
G1 X96.107 Y110.823 E7.09356
G1 X97.282 Y108.903 E7.16412
G1 X98.134 Y106.845 E7.23397
G1 X98.657 Y104.667 E7.30419
G1 X98.832 Y102.444 E7.37413
G1 X98.832 Y87.788 E7.83364
G1 X98.862 Y87.475 E7.84352
G1 X98.948 Y87.185 E7.85300
G1 X99.007 Y87.060 E7.85734
G1 X99.172 Y86.814 E7.86661
G1 X99.388 Y86.601 E7.87612
G1 X99.504 Y86.516 E7.88064
G1 X99.784 Y86.366 E7.89059
G1 X100.094 Y86.266 E7.90080
G1 X100.429 Y86.218 E7.91142
G1 X100.781 Y86.224 E7.92245
G1 X101.138 Y86.284 E7.93381
G1 X101.490 Y86.398 E7.94541
G1 X101.833 Y86.565 E7.95736
G1 X110.443 Y91.536 E8.26909
G1 X115.037 Y95.420 E8.45771
G1 X115.702 Y95.896 E8.48335
G1 X116.441 Y96.266 E8.50925
G1 X117.232 Y96.515 E8.53524
G1 X118.038 Y96.633 E8.56079
G1 X127.601 Y96.645 E8.86064
G1 X127.825 Y96.660 E8.86768
G1 X128.030 Y96.699 E8.87422
G1 X128.222 Y96.764 E8.88057
G1 X128.392 Y96.849 E8.88655
G1 X128.535 Y96.952 E8.89207
G1 X128.647 Y97.067 E8.89709
G1 X128.725 Y97.188 E8.90162
G1 X128.771 Y97.312 E8.90575
G1 X128.788 Y97.448 E8.91006
G1 X128.788 Y111.900 E9.36318
G1 X128.771 Y112.049 E9.36788
G1 X128.693 Y112.213 E9.37356
G1 X128.639 Y112.273 E9.37611
G1 X128.513 Y112.361 E9.38094
G1 X128.389 Y112.413 E9.38513
G1 X127.250 Y112.632 E9.42150
G1 X126.169 Y112.928 E9.45665
G1 X125.048 Y113.343 E9.49412
G1 X123.271 Y114.157 E9.55543
G1 X121.409 Y115.137 E9.62139
G1 X119.426 Y116.307 E9.69358
G1 X118.070 Y117.168 E9.74395
G1 X115.342 Y119.012 E9.84718
G1 X111.841 Y121.479 E9.98146
G1 X108.950 Y123.487 E10.09183
G1 X107.679 Y124.335 E10.13974
G1 X105.963 Y125.434 E10.20363
G1 X104.256 Y126.460 E10.26608
G1 X102.531 Y127.421 E10.32800
G1 X100.804 Y128.299 E10.38875
G1 X99.077 Y129.087 E10.44824
G1 X97.303 Y129.800 E10.50821
G1 X95.532 Y130.415 E10.56700
G1 X93.728 Y130.940 E10.62590
G1 X91.945 Y131.360 E10.68332
G1 X90.109 Y131.693 E10.74182
G1 X88.223 Y131.931 E10.80144
G1 X86.446 Y132.066 E10.85731
G1 X84.620 Y132.113 E10.91460
G1 X82.830 Y132.066 E10.97073
G1 X81.546 Y131.973 E11.01109
G1 X80.043 Y131.795 E11.05855
G1 X78.577 Y131.540 E11.10520
G1 X77.146 Y131.201 E11.15130
G1 X75.769 Y130.778 E11.19648
G1 X74.372 Y130.246 E11.24336
G1 X73.914 Y130.046 E11.25902
G1 X72.590 Y129.397 E11.30524
G1 X71.276 Y128.636 E11.35287
G1 X70.033 Y127.799 E11.39985
G1 X68.839 Y126.874 E11.44722
G1 X67.415 Y125.594 E11.50724
G1 X66.292 Y124.427 E11.55803
G1 X65.238 Y123.180 E11.60923
G1 X64.250 Y121.855 E11.66104
G1 X63.330 Y120.452 E11.71365
G1 X62.813 Y119.577 E11.74552
G1 X61.983 Y118.009 E11.80113
G1 X61.243 Y116.391 E11.85693
G1 X60.599 Y114.742 E11.91244
G1 X60.033 Y113.021 E11.96925
G1 X59.544 Y111.189 E12.02868
G1 X59.193 Y109.497 E12.08288
G1 X58.935 Y107.806 E12.13650
G1 X58.772 Y106.121 E12.18958
G1 X58.704 Y104.158 E12.25118
G1 X58.704 Y92.159 E12.62738
G1 X58.736 Y91.565 E12.64603
G1 X59.133 Y91.575 F7800.000
G1 E7.64603 F2400.00000
G92 E0
G1 X68.118 Y113.835 F7800.000
G1 E5.00000 F2400.00000
G1 F1800
G1 X67.857 Y114.298 E5.01187
G1 X67.683 Y114.606 E5.02353
G1 E0.02353 F2400.00000
G92 E0
G1 X73.457 Y119.160 F7800.000
G1 E5.00000 F2400.00000
G1 F1800
G1 X73.266 Y119.752 E5.01376
G1 E0.01376 F2400.00000
G92 E0
G1 X103.011 Y109.044 F7800.000
G1 E5.00000 F2400.00000
G1 F1800
G1 X103.158 Y109.019 E5.00328
G1 X103.306 Y108.994 E5.00709
G1 X103.454 Y108.968 E5.01144
G1 X103.749 Y108.918 E5.02102
G1 X103.911 Y108.623 E5.03178
G1 E0.03178 F2400.00000
G92 E0
G1 X97.390 Y109.399 F7800.000
G1 E5.00000 F2400.00000
G1 F1800
G1 X97.209 Y109.735 E5.01163
G1 X96.793 Y110.371 E5.03473
G1 X96.378 Y111.006 E5.05498
G1 X95.693 Y111.882 E5.08052
G1 X94.898 Y112.740 E5.10736
G1 X94.416 Y113.186 E5.12246
G1 X93.948 Y113.618 E5.14204
